!!!!SEGMENT: pl-kk--kk-i-1--002-003_ruffo-vincenzo--missa-alma-redemptoris-mater-patrem.krn
!!!cenid: 15xx:660
!!!COM: Ruffo, Vincenzo
!!!COM-rismid: pe30002765
!!!CDT: ~1508-1587
!!!CNT: Italian
!!!OPR: Missa Alma redemptoris mater
!!!OTL: Patrem
!!!OMV: 003
!!!PDT:
!!!AGN:
!!!SMS-siglum: PL-Kk
!!!SMS-shelfmark: Kk.I.1
!!!SMS-shelfwork: 002-003 M
!!!SMS-variant:
!!!SMS-altvar:
!!!NIFC-rismid: 300257956
!!!URL-scan: http://repozytorium.nifc.pl/skany/pl-kk-nut--i-1
!!!ONB-nifc: UWAGA: Cantus (s. 2r-11v, skan 0004-0014), Altus (s. 1r-12r, skan 0193-0204), Tenor (s. 2r-12r, skan 0390-0400), Bassus (s. 2r-12r, skan 0563-0573). Części Mszy: 1. Kyrie, 2. Et in terra, 3. Patrem, 4. Sanctus, 5. Agnus Dei
!!!key: F
**kern	**text	**kern	**text	**kern	**text	**kern	**text
*part4	*part4	*part3	*part3	*part2	*part2	*part1	*part1
*staff4	*staff4	*staff3	*staff3	*staff2	*staff2	*staff1	*staff1
*I"BASSVS	*	*I"TENOR	*	*I"ALTVS	*	*I"CANTVS	*
*I'B	*	*I'T	*	*I'A	*	*I'C	*
*Ibass	*	*Itenor	*	*Ialto	*	*Isoprn	*
*ICvox	*	*ICvox	*	*ICvox	*	*ICvox	*
*clefF3	*	*clefC3	*	*clefC3	*	*clefC3	*
*k[b-]	*	*k[b-]	*	*k[b-]	*	*k[b-]	*
*F:	*	*F:	*	*F:	*	*F:	*
*M2/1	*	*M2/1	*	*M2/1	*	*M2/1	*
*met(C|)	*	*met(C|)	*	*met(C|)	*	*met(C|)	*
=1-	=1-	=1-	=1-	=1-	=1-	=1-	=1-
!LO:TX:t=P:problem:znaki B- BB-	!	!	!	!LO:TX:t=P:problem:kreska pseudotaktowa	!	!	!
00r	.	00r	.	00r	.	1F	Pa-
.	.	.	.	.	.	2F/	-trem
.	.	.	.	.	.	2F/	om-
=2-	=2-	=2-	=2-	=2-	=2-	=2-	=2-
.	.	.	.	.	.	2A/	 ni-
.	.	.	.	.	.	2A/	-po-
.	.	.	.	.	.	1B-	-te(n)-
=3-	=3-	=3-	=3-	=3-	=3-	=3-	=3-
00r	.	00r	.	1F	Pa-	0c	-te(m)
.	.	.	.	2F/	-trem	.	.
.	.	.	.	2F/	om-	.	.
=4-	=4-	=4-	=4-	=4-	=4-	=4-	=4-
.	.	.	.	2A/	-(n)i-	2r	.
.	.	.	.	2A/	-po-	2c/	fac-
*	*	*	*	*	*	*2\right	*
!	!	!	!	!LO:SIC:v:t=custos c	!	!	!
.	.	.	.	1B-	-ten-	2d\	-to-
.	.	.	.	.	.	2d\	-re(m)
!	!	!	!	!LO:LB:g=original	!	!	!
=5-	=5-	=5-	=5-	=5-	=5-	=5-	=5-
!	!	!LO:TX:t=P:problem:kreska pseudotaktowa	!	!	!	!	!
00r	.	1r	.	1c	-tem,	1e	cae-
.	.	1F	Pa-	2r	.	2c\	-li
.	.	.	.	2c/	Fac-	1f\	et
=6-	=6-	=6-	=6-	=6-	=6-	=6-	=6-
*	*	*	*	*2\right	*	*	*
.	.	2F/	-trem	2f\	-to-	.	.
.	.	2F/	om-	2f\	-re(m)	4e\	ter-
.	.	.	.	.	.	4d\	.
.	.	2A/	-ni-	1e	cae-	1c	-re
!	!	!LO:TX:t=P:problem:kreska pseudotaktowa	!	!	!	!	!
.	.	2A/	-po-	.	.	.	.
=7-	=7-	=7-	=7-	=7-	=7-	=7-	=7-
1r	.	1B-	-te(n)-	2d\	-li	1r	.
.	.	.	.	1f	et	.	.
!	!	!LO:TX:t=P:problem:kreska pseudotaktowa	!	!	!	!	!
1F	PA-	0c	-te(m),	.	.	1a	fac-
.	.	.	.	4e\	ter-	.	.
.	.	.	.	4d\	-re,	.	.
=8-	=8-	=8-	=8-	=8-	=8-	=8-	=8-
2F/	-trem	.	.	1c	.	1.a	-to-
2F/	om-	.	.	.	.	.	.
*2\right	*	*	*	*	*	*	*
2A\	-(n)i-	2r	.	1r	.	.	.
!	!	!LO:TX:t=P:problem:kreska pseudotaktowa	!	!	!	!LO:SIC:v:t=custos f	!
2A\	-po-	2c/	fac-	.	.	2a\	-re(m)
!	!	!	!	!	!	!LO:PB:g=original	!
=9-	=9-	=9-	=9-	=9-	=9-	=9-	=9-
1B-	-ten-	2d/	 to-	00r	.	2f\	cę-
.	.	2d/	-re(m)	.	.	2.g\	-li
!	!	!LO:TX:t=P:problem:kreska pseudotaktowa	!	!	!	!	!
1c	-te(m);	1e	cae-	.	.	.	.
.	.	.	.	.	.	4e\	et
.	.	.	.	.	.	2a\	ter-
=10-	=10-	=10-	=10-	=10-	=10-	=10-	=10-
!	!	!LO:SIC:v:t=custos f	!	!	!	!	!
2r	.	2c/	-li	.	.	2g\	-re;
!	!	!LO:LB:g=original	!	!	!	!	!
2F/	Fac-	1f	et	.	.	1a	.
2F/	-to-	.	.	.	.	.	.
2G/	-re(m)	4e\	ter-	.	.	4g\	.
!	!	!LO:TX:t=P:problem:kreska pseudotaktowa	!	!	!	!	!
.	.	4d\	.	.	.	4f\	.
=11-	=11-	=11-	=11-	=11-	=11-	=11-	=11-
2.A\	cali	4c/	-re	2r	.	1e	.
.	.	4B-/	.	.	.	.	.
*	*	*	*	*	*ij	*	*
.	.	4c\	.	2c/	Fac-	.	.
!	!	!LO:TX:t=P:problem:kreska pseudotaktowa	!	!	!	!	!
4B-\	et	4d\	.	.	.	.	.
*	*	*2\right	*	*	*	*	*
!LO:SIC:v:t=custos d	!	!	!	!	!	!	!
2c\	terre,	2e\	.	2c/	-to-	1r	.
!LO:LB:g=original	!	!	!	!	!	!	!
2.d\	.	2.f\	.	2B-/	-re(m)-	.	.
=12-	=12-	=12-	=12-	=12-	=12-	=12-	=12-
.	.	.	.	1A	-cae-	2r	.
4c\	.	4e\	.	.	.	.	.
*	*	*	*	*	*	*	*ij
1c	.	4d\	.	.	.	2f\	fac-
!	!	!LO:TX:t=P:problem:kreska pseudotaktowa	!	!	!	!	!
.	.	4c\	.	.	.	.	.
*	*	*	*ij	*	*	*	*
.	.	1d	et	1G	.	1g	-to-
*	*ij	*	*	*	*	*	*
2B-\	et	.	.	.	.	.	.
=13-	=13-	=13-	=13-	=13-	=13-	=13-	=13-
2c\	.	2.c/	ter-	2.A/	-li	2e\	-re(m)
1F	ter-	.	.	.	.	1a	-cę-
!	!	!LO:TX:t=P:problem:kreska pseudotaktowa	!	!	!	!	!
.	.	4B-/	.	4B-/	.	.	.
.	.	4A/	.	2c/	.	.	.
.	.	4G/	.	.	.	.	.
*	*	*	*	*	*	*col	*
2E/	.	2.c/	.	2G/	et	2.g\	-li
!	!	!	!	!LO:LB:g=original	!	!	!
=14-	=14-	=14-	=14-	=14-	=14-	=14-	=14-
1D	.	.	.	2A/	ter-	.	.
.	.	8B-/L	.	.	.	4f\	et
.	.	8A/J	.	.	.	.	.
*	*	*	*	*	*	*Xcol	*
.	.	2B-/	.	4G/	.	1f	ter-
.	.	.	.	4F/	.	.	.
!	!	!LO:TX:t=P:problem:kreska pseudotaktowa	!	!	!	!	!
1C	-re	0c	-re	1G	.	.	.
*	*Xij	*	*Xij	*	*	*	*
.	.	.	.	.	.	2e\	.
=15-	=15-	=15-	=15-	=15-	=15-	=15-	=15-
2r	.	.	.	0F	-re,	0f	-re
*	*	*	*	*	*Xij	*	*Xij
1c	vi-	.	.	.	.	.	.
.	.	2r	.	.	.	.	.
2A\	-ſi-	1f\	vi-	.	.	.	.
=16-	=16-	=16-	=16-	=16-	=16-	=16-	=16-
2B-\	-bi-	.	.	1r	.	00r	.
!	!	!LO:SIC:v:t=custos a	!	!	!	!	!
!	!	!LO:TX:t=P:problem:kreska pseudotaktowa	!	!	!	!	!
2G\	-li-	2g\	-ſi-	.	.	.	.
!	!	!LO:PB:g=original	!	!	!	!	!
1.F	-um	1.a	-bi-	2r	.	.	.
.	.	.	.	1c\	ui-	.	.
=17-	=17-	=17-	=17-	=17-	=17-	=17-	=17-
.	.	.	.	.	.	.	.
2E/	.	2g\	-li-	2c/	-ſi-	.	.
2D/	.	2f\	-um	2d\	-bi-	.	.
2C/	.	1a\	om-	2e\	-li-	.	.
=18-	=18-	=18-	=18-	=18-	=18-	=18-	=18-
2.F/	om-	.	.	2.f\	-um	00r	.
.	.	4g\	-ni-	.	.	.	.
!LO:SIC:v:t=custos A	!	!	!	!	!	!	!
4G/	.	4f\	-um	8e\L	.	.	.
.	.	.	.	8d\J	.	.	.
!LO:LB:g=original	!	!	!	!	!	!	!
2A\	.	4e\	.	2c/	.	.	.
.	.	4f\	.	.	.	.	.
1B-\	-ni-	1g\	.	1d\	om-	.	.
=19-	=19-	=19-	=19-	=19-	=19-	=19-	=19-
.	.	.	.	.	.	.	.
1A	-um;	4f\	.	2c/	-ni-	.	.
.	.	4e\	.	.	.	.	.
.	.	2f\	.	2B-/	-um	.	.
2G\	.	2g\	.	2B-/	.	.	.
=20-	=20-	=20-	=20-	=20-	=20-	=20-	=20-
1A	.	1c	.	2A/	.	2r	.
.	.	.	.	1c	et	2F/	vi-
!	!	!	!	!	!	!LO:SIC:v:t=custos G	!
1r	.	2r	.	.	.	2F/	-ſi-
!	!	!	!	!LO:SIC:v:t=custos c	!	!LO:LB:g=original	!
.	.	2g\	et	2B-/	in-	2G/	-bi-
!	!	!	!	!LO:PB:g=original	!	!	!
=21-	=21-	=21-	=21-	=21-	=21-	=21-	=21-
!	!	!	!	!LO:TX:t=P:problem:dalszy ciąg na 0199v	!	!	!
2r	.	2e\	in-	4c/	-ui-	2.A/	-li-
.	.	.	.	4B-/	-ſi-	.	.
2F/	et	2.f\	-ui-	4A/	-bi-	.	.
.	.	.	.	4G/	-li-	4B-/	-um
2F/	in-	.	.	2A/	-um;	2c/	om
.	.	4g\	-ſi-	.	.	.	.
2D/	-ui-	2a\	-bi-	2F/	.	2.d/	ni-
=22-	=22-	=22-	=22-	=22-	=22-	=22-	=22-
2E/	-ſi-	2g\	-li-	2G/	.	.	.
.	.	.	.	.	.	4c/	-u(m)
2F/	-bi-	1f	-um,	2A/	.	1c	.
1D	-li-	.	.	1F	.	.	.
.	.	4e/	.	.	.	2B-/	.
!	!	!LO:SIC:v:t=custos e	!	!	!	!	!
.	.	4d/	.	.	.	.	.
!	!	!LO:LB:g=original	!	!	!	!	!
=23-	=23-	=23-	=23-	=23-	=23-	=23-	=23-
1C	-um;	1e	.	2r	.	2c/	et
*	*	*	*	*	*ij	*	*
.	.	.	.	2G/	et	2c/	in-
2r	.	2r	.	2B-/	in-	2d/	-ui-
*	*ij	*	*ij	*	*	*	*
2c\	et	2c/	et	2A/	-ui-	2e\	-ſi-
=24-	=24-	=24-	=24-	=24-	=24-	=24-	=24-
2c\	in-	2A/	in-	1c	-ſi-	2.f\	-bi-
2A\	ui-	2F/	-ui-	.	.	.	.
.	.	.	.	.	.	4e\	-li-
2.B-\	-ſi-	4G/	-ſi-	1.B-	-bi-	4d/	-u(m),
.	.	4F/	.	.	.	4c/	.
.	.	4G/	.	.	.	2.d/	.
!LO:SIC:v:t=custos G	!	!	!	!	!	!	!
4A\	.	4A/	.	.	.	.	.
!LO:LB:g=original	!	!	!	!	!	!	!
=25-	=25-	=25-	=25-	=25-	=25-	=25-	=25-
2G/	-bi-	2B-/	-bi-	.	.	.	.
.	.	.	.	.	.	4c/	.
2F/	.	2c/	.	2A/	.	1f	.
1C	-li-	1c	-li-	1G	-li-	.	.
.	.	.	.	.	.	2e\	.
=26-	=26-	=26-	=26-	=26-	=26-	=26-	=26-
0.F	-um	0.A	-um	1F	-um	1f	.
*	*Xij	*	*Xij	*	*Xij	*	*
.	.	.	.	2r	.	2r	.
!	!	!	!	!	!	!LO:SIC:v:t=custos a	!
.	.	.	.	1f\	Et	1a\	Et
*	*	*	*	*	*	*clefC2	*
=27-	=27-	=27-	=27-	=27-	=27-	=27-	=27-
.	.	.	.	.	.	.	.
!	!	!	!	!	!	!LO:LB:g=original	!
.	.	.	.	2f\	in	2a\	in
1r	.	1r	.	2e\	u-	2g\	u-
!	!	!	!	!LO:SIC:v:t=custos e	!	!	!
.	.	.	.	2d\	-nu(m)	2f\	-nu(m)
!	!	!	!	!LO:LB:g=original	!	!	!
=28-	=28-	=28-	=28-	=28-	=28-	=28-	=28-
2r	.	00r	.	2.e\	do-	2.g\	do-
1c	et	.	.	.	.	.	.
.	.	.	.	4d\	-mi-	4f/	-mi-
.	.	.	.	2c/	-nu(m)	2e/	-nu(m)
2A\	in	.	.	2c/	Ie-	1f\	Ie-
=29-	=29-	=29-	=29-	=29-	=29-	=29-	=29-
2B-\	u-	.	.	1d	-su(m)	.	.
2G\	-num	.	.	.	.	2g\	-ſum
2.A\	do-	.	.	1c	Chr(i-	2e/	Chriſ-
.	.	.	.	.	.	1f\	.
4G\	-mi-	.	.	.	.	.	.
=30-	=30-	=30-	=30-	=30-	=30-	=30-	=30-
1F	-nu(m)	2r	.	0A	-stu)m	.	.
.	.	1f	Et	.	.	4e/	.
.	.	.	.	.	.	4d/	.
2.F/	Ie-	.	.	.	.	1c	-tu(m),
.	.	2f\	in	.	.	.	.
4G\	-ſum	.	.	.	.	.	.
=31-	=31-	=31-	=31-	=31-	=31-	=31-	=31-
2A\	.	2e\	u-	0r	.	1r	.
2B-\	.	2d/	-nu(m)	.	.	.	.
2.c\	.	2.e\	do-	.	.	2r	.
.	.	.	.	.	.	2g\	fi-
4B-\	.	4d/	-mi-	.	.	.	.
=32-	=32-	=32-	=32-	=32-	=32-	=32-	=32-
!	!	!LO:SIC:v:t=custos d	!	!	!	!	!
4A\	.	2c/	-nu(m)	1r	.	2a\	-li-
!LO:SIC:v:t=custos B-	!	!	!	!	!	!	!
4G\	.	.	.	.	.	.	.
!LO:PB:g=original	!	!LO:LB:g=original	!	!	!	!	!
2.B-\	Chri-	1d	Ie-	.	.	2f\	-u(m)
.	.	.	.	2r	.	1a	de-
4A\	.	.	.	.	.	.	.
2A\	-ſtum;	2c/	-ſu(m)	2F/	fi-	.	.
=33-	=33-	=33-	=33-	=33-	=33-	=33-	=33-
1d	.	1B-	Chr(i-	2G/	  li-	1g	-i,
.	.	.	.	2G/	-um	.	.
1c	.	0A	-st)um	1A	de-	2r	.
.	.	.	.	.	.	2e/	v-
=34-	=34-	=34-	=34-	=34-	=34-	=34-	=34-
2r	.	.	.	2F/	-i	2.f/	-ni-
2F/	fi-	.	.	1c	u-	.	.
!	!	!	!	!	!	!LO:SIC:v:t=custos d	!
.	.	.	.	.	.	4e/	.
!	!	!	!	!	!	!LO:LB:g=original	!
2G/	-li-	1r	.	.	.	2d/	-ge-
2G/	-um	.	.	2B-/	-ni-	2d/	-ni-
=35-	=35-	=35-	=35-	=35-	=35-	=35-	=35-
2.A\	de-	2r	.	2.c/	-ge-	1c	-tu(m),
.	.	2c/	fi-	.	.	.	.
4B-\	-i	.	.	4d\	-ni-	.	.
2c\	.	2c/	-li-	4e\	-tum,	1r	.
!	!	!	!	!LO:SIC:v:t=custos g	!	!	!
.	.	.	.	4f\	.	.	.
!	!	!	!	!LO:LB:g=original	!	!	!
2G/	.	2d/	-um	2.g\	.	.	.
=36-	=36-	=36-	=36-	=36-	=36-	=36-	=36-
1.c	u-	2.e\	de-	.	.	2r	.
.	.	.	.	4f\	.	.	.
.	.	.	.	4e\	.	2c/	fi-
.	.	4f\	-i,	4d\	.	.	.
.	.	1g	.	2e\	.	2c/	-li-
2B-\	-ni-	.	.	2f\	.	2d/	-um
=37-	=37-	=37-	=37-	=37-	=37-	=37-	=37-
2A\	-ge-	2r	.	2c/	.	2.e/	de-
*	*	*	*	*	*ij	*	*
2A\	-ni-	2c/	.	2A/	fi-	.	.
.	.	.	.	.	.	4f/	-i
1G	-tum,	2d/	.	2B-/	-li-	0g	v-
.	.	2d/	.	2B-/	-um	.	.
=38-	=38-	=38-	=38-	=38-	=38-	=38-	=38-
!	!	!LO:TX:b:t=P:problem:# below	!	!	!	!	!
!	!	!LO:N:acc=#	!	!	!	!	!
2r	.	1en	.	1c	de-	.	.
*	*ij	*	*	*	*	*	*
!LO:SIC:v:t=custos F	!	!	!	!	!	!	!
2C/	u-	.	.	.	.	.	.
!LO:LB:g=original	!	!	!	!	!	!	!
1.F	-ni-	1.c	v-	2A/	-i	1a	-ni-
.	.	.	.	4f\	u-	.	.
.	.	.	.	4e\	.	.	.
=39-	=39-	=39-	=39-	=39-	=39-	=39-	=39-
.	.	.	.	4d\	-ni-	2a\	-ge-
.	.	.	.	4c\	.	.	.
!	!	!LO:SIC:v:t=custos A	!	!	!	!	!
2E/	.	2G/	-ni-	2.c/	-ge-	2.g\	-ni-
!	!	!LO:LB:g=original	!	!	!	!	!
2D/	-ge-	2A/	-ge-	.	.	.	.
.	.	.	.	8B-/L	.	4f\	-tum
.	.	.	.	8A/J	.	.	.
2D/	-ni-	4G/	-ni-	2B-/	.	1f\	.
.	.	4F/	-tum	.	.	.	.
=40-	=40-	=40-	=40-	=40-	=40-	=40-	=40-
1C	-tum,	2G/	.	1c	-ni-	.	.
*	*Xij	*	*	*	*	*	*
.	.	2G/	.	.	.	2e/	.
1r	.	0F	.	0A	-tum	0f	.
*	*	*	*	*	*Xij	*	*
=41-	=41-	=41-	=41-	=41-	=41-	=41-	=41-
1.F	Et	.	.	.	.	.	.
!	!	!	!	!LO:SIC:v:t=custos c	!	!	!
.	.	1r	.	1r	.	1r	.
2G\	ex	.	.	.	.	.	.
!	!	!	!	!LO:LB:g=original	!	!	!
=42-	=42-	=42-	=42-	=42-	=42-	=42-	=42-
1A	pa-	00r	.	1.c	Et	0r	.
2F/	-tre	.	.	.	.	.	.
2B-\	na-	.	.	2d/	ex	.	.
=43-	=43-	=43-	=43-	=43-	=43-	=43-	=43-
2A\	-tum;	.	.	2.e\	pa-	1r	.
1G	.	.	.	.	.	.	.
.	.	.	.	4f\	.	.	.
.	.	.	.	1g	-tre	2r	.
4F/	.	.	.	.	.	1c/	Et
4E/	.	.	.	.	.	.	.
=44-	=44-	=44-	=44-	=44-	=44-	=44-	=44-
1F	.	1F	Et	1a	na-	.	.
!	!	!	!	!	!	!LO:SIC:v:t=custos e	!
.	.	.	.	.	.	2d/	ex
!	!	!	!	!	!	!LO:PB:g=original	!
*	*ij	*	*	*	*	*	*
2C/	et	1G	ex	1g	-tu(m);	1e	pa-
2C/	ex	.	.	.	.	.	.
=45-	=45-	=45-	=45-	=45-	=45-	=45-	=45-
2.F/	Pa-	1A	[[pec-	1r	.	2c/	-tre
.	.	.	.	.	.	1f	na-
4E/	.	.	.	.	.	.	.
!LO:SIC:v:t=custos c	!	!	!	!	!	!	!
2D/	.	2F/	-to]]	2r	.	.	.
!LO:LB:g=original	!	!	!	!	!	!	!
2C/	-tre	1c\	pa-	1g\	an-	2e/	-tum;
=46-	=46-	=46-	=46-	=46-	=46-	=46-	=46-
1G	na-	.	.	.	.	1d	.
.	.	2B-/	-tre	2g\	-te	.	.
1A	.	2c/	.	2e\	om-	1c	.
.	.	2c/	na-	2f\	-(n)i-	.	.
=47-	=47-	=47-	=47-	=47-	=47-	=47-	=47-
1G	-tum	2d\	-tu(m)	0g	-a	1r	.
*	*Xij	*	*	*	*	*	*
.	.	2d\	an-	.	.	.	.
2r	.	2.e\	-te-	.	.	1.c	an-
1C/	an-	.	.	.	.	.	.
.	.	4f\	-om-	.	.	.	.
=48-	=48-	=48-	=48-	=48-	=48-	=48-	=48-
.	.	2g\	-ni-	2r	.	.	.
*	*	*	*	*	*ij	*	*
!	!	!LO:SIC:v:t=custos A	!	!	!	!	!
2C/	-te	2G/	-a	2g\	an-	2c/	  te
!	!	!LO:PB:g=original	!	!	!	!	!
2F/	om-	2A/	an-	2f\	-te	2c/	om-
2E/	-(n)i-	2G/	-te	2.g\	om-	2c/	-(n)i-
=49-	=49-	=49-	=49-	=49-	=49-	=49-	=49-
*lig	*	*	*	*	*	*	*
1D	-a	2.A/	om-	.	.	1d	-a
.	.	.	.	4f\	.	.	.
.	.	.	.	1f	.	.	.
.	.	4B-/	-ni-	.	.	.	.
1C	.	1c	-a	.	.	1G	ſe-
.	.	.	.	2e\	-(n)i-	.	.
*Xlig	*	*	*	*	*	*	*
=50-	=50-	=50-	=50-	=50-	=50-	=50-	=50-
!	!	!	!	!LO:SIC:v:t=custos e	!	!	!
2.F/	ſe-	2d/	.	1f	-a	2.A/	-cu-
*	*	*	*	*	*Xij	*	*
.	.	2.c/	.	.	.	.	.
4G/	.	.	.	.	.	4B-/	-la
!	!	!	!	!LO:PB:g=original	!	!	!
4A\	.	.	.	2.e\	ſe-	2.c/	.
4B-\	.	4B-/	.	.	.	.	.
1c\	.	4A/	.	.	.	.	.
.	.	4G/	.	4f\	-cu-	4d/	.
=51-	=51-	=51-	=51-	=51-	=51-	=51-	=51-
.	.	2F/	.	2g\	-la	2e/	.
!	!	!	!	!	!	!LO:SIC:v:t=custos e	!
2F/	.	1c	ſe-	1a	.	2f/	.
!	!	!	!	!	!	!LO:LB:g=original	!
*	*	*	*	*	*	*	*ij
1A	-cu-	.	.	.	.	2e/	ſe-
.	.	4B-/	-cu-	2f\	.	4d/	.
.	.	4A/	-la	.	.	4c/	.
=52-	=52-	=52-	=52-	=52-	=52-	=52-	=52-
1G	-la,	1B-	.	1g	.	2d/	.
.	.	.	.	.	.	2d/	-cu-
0C	.	0c	.	0e	De-	0c	-la
*	*	*	*	*	*	*	*Xij
=53-	=53-	=53-	=53-	=53-	=53-	=53-	=53-
.	.	.	.	.	.	.	.
1.F	De-	1.c	De-	1.f	-um	1.A	De-
=54-	=54-	=54-	=54-	=54-	=54-	=54-	=54-
.	.	.	.	.	.	.	.
!LO:SIC:v:t=custos F	!	!	!	!	!	!	!
2F/	-u(m)	2c/	-u(m)	2f\	de	2A/	 um
!LO:LB:g=original	!	!	!	!	!	!	!
1F	de	1c	de	1f	de-	1A	de
=55-	=55-	=55-	=55-	=55-	=55-	=55-	=55-
!	!	!LO:SIC:v:t=custos G	!	!	!	!	!
1D	de-	1F	de-	1f	-o,	1B-	de-
!	!	!LO:LB:g=original	!	!	!	!	!
0C	-o,	0.G	-o,	0e	.	1c	-o,
=56-	=56-	=56-	=56-	=56-	=56-	=56-	=56-
.	.	.	.	.	.	2r	.
.	.	.	.	.	.	2c/	lu-
2r	.	.	.	0r	.	2d/	-me(n)
2C/	lu-	.	.	.	.	2c/	de
=57-	=57-	=57-	=57-	=57-	=57-	=57-	=57-
2D/	-men	2r	.	.	.	2f\	lu-
2C/	de	2G/	lu-	.	.	2e/	-mi-
2.F/	lu-	2.A/	-men	1r	.	2c/	-(n)e,
.	.	.	.	.	.	1a\	de-
4G\	-mi-	4B-/	de	.	.	.	.
=58-	=58-	=58-	=58-	=58-	=58-	=58-	=58-
1A	-ne,	2c/	lu-	1e	de-	.	.
.	.	2c/	-mi-	.	.	2a\	-u(m)
!	!	!	!	!	!	!LO:SIC:v:t=custos a	!
2.D/	de-	2d\	-ne,-	2.f\	-um	1a	ve-
.	.	1f\	-de-	.	.	.	.
4E/	.	.	.	4e\	.	.	.
!	!	!	!	!	!	!LO:LB:g=original	!
=59-	=59-	=59-	=59-	=59-	=59-	=59-	=59-
4F\	-u(m)	.	.	2d/	ue-	1a	-ru(m),
4G\	.	.	.	.	.	.	.
1A	ue-	2e\	-u(m)	2c/	.	.	.
.	.	1d	ve-	1B-	-ru(m),	1r	.
2G\	-ru(m);	.	.	.	.	.	.
=60-	=60-	=60-	=60-	=60-	=60-	=60-	=60-
1A	.	1c	-ru(m),	1A	de	1a	de
1.F	de	2r	.	1.c	de-	1.a	de-
.	.	2.f\	de	.	.	.	.
=61-	=61-	=61-	=61-	=61-	=61-	=61-	=61-
.	.	.	.	.	.	.	.
.	.	4e\	.	.	.	.	.
!	!	!	!	!LO:SIC:v:t=custos A	!	!	!
2G/	de-	4d\	.	2B-/	-o	2g\	-o
.	.	4c\	.	.	.	.	.
!LO:SIC:v:t=custos f	!	!	!	!LO:LB:g=original	!	!	!
2D/	-o	2d\	de-	2.A/	.	2f\	ve-
!LO:PB:g=original	!	!	!	!	!	!	!
2.F/	.	2c/	-o	.	.	2.a\	-ro;
.	.	.	.	4B-/	.	.	.
=62-	=62-	=62-	=62-	=62-	=62-	=62-	=62-
.	.	2A/	ve-	2c/	.	.	.
4E/	.	.	.	.	.	4g\	.
2D/	ue-	2B-/	-ro,	2F/	ue-	1f	.
!	!	!LO:SIC:v:t=custos c	!	!	!	!	!
1C	-ro;	1c	.	1G	.	.	.
.	.	.	.	.	.	2e/	.
!	!	!LO:LB:g=original	!	!	!	!	!
=63-	=63-	=63-	=63-	=63-	=63-	=63-	=63-
1F	.	0c	.	0.A	-ro,	1f	.
2r	.	.	.	.	.	1r	.
1c\	Ge-	.	.	.	.	.	.
=64-	=64-	=64-	=64-	=64-	=64-	=64-	=64-
.	.	2r	.	.	.	2.e/	Ge-
2c\	-ni-	1c	Ge-	.	.	.	.
.	.	.	.	.	.	4f/	-ni-
2c\	-tu(m)	.	.	0r	.	2g\	-tu(m)
2d\	no(n)	2B-/	-ni-	.	.	2g\	no(n)
=65-	=65-	=65-	=65-	=65-	=65-	=65-	=65-
1c	fac-	2A/	-tum	.	.	0a	fac-
.	.	2.F/	no(n)	.	.	.	.
1A	-tu(m)	.	.	2.c/	Ge-	.	.
.	.	4G/	fac-	.	.	.	.
.	.	4A/	-tum,	.	.	.	.
.	.	4B-/	.	4d\	-ni-	.	.
=66-	=66-	=66-	=66-	=66-	=66-	=66-	=66-
1r	.	2c/	.	2e\	  tum	2g\	-tu(m)
.	.	2d/	.	2f\	.	2f/	.
2r	.	1c	.	2g\	.	2e/	con-
!	!	!	!	!	!	!LO:SIC:v:t=custos d	!
1F\	con-	.	.	1a\	non	1c/	-ſub-
=67-	=67-	=67-	=67-	=67-	=67-	=67-	=67-
.	.	1A	.	.	.	.	.
!	!	!	!	!	!	!LO:LB:g=original	!
2D/	-ſub-	.	.	4g\	.	2d/	-ſta(n)ti-
.	.	.	.	4f\	.	.	.
2E/	-ſtan-	2r	.	2g\	fac-	2c/	-a-
2F/	-ti-	2c/	con-	2a\	-tu(m)	2A/	-le(m)
=68-	=68-	=68-	=68-	=68-	=68-	=68-	=68-
1D	-a-	2d/	-ſub-	1f	.	1B-	pa-
.	.	2d/	-ſta(n)-	.	.	.	.
1C	-le(m)	2G/	-ti-	1e	.	0c	-tri,
.	.	2.c/	-a-	.	.	.	.
=69-	=69-	=69-	=69-	=69-	=69-	=69-	=69-
2.F/	pa-	.	.	2r	.	.	.
.	.	4B-/	-lem	.	.	.	.
.	.	4A/	.	2c/	con	.	.
4E/	.	4G/	.	.	.	.	.
!LO:SIC:v:t=custos C	!	!LO:SIC:v:t=custos f	!	!	!	!	!
1D	-tri,	2F/	.	2d/	ſub	1f	per
!	!	!LO:LB:g=original	!	!LO:SIC:v:t=custos c	!	!	!
.	.	1f\	pa-	2A/	sta(n)-	.	.
!LO:LB:g=original	!	!	!	!LO:LB:g=original	!	!	!
=70-	=70-	=70-	=70-	=70-	=70-	=70-	=70-
1C	.	.	.	2.c/	-ti-	1g	que(m)
.	.	2e\	-tri;	.	.	.	.
.	.	.	.	4B-/	-a-	.	.
2r	.	1f	.	2A/	-lem	1.a	om-
1c\	per	.	.	2F/	.	.	.
=71-	=71-	=71-	=71-	=71-	=71-	=71-	=71-
.	.	2r	.	1A	pa-	.	.
2A\	quem	2c/	per	.	.	2f\	-(n)i-
1B-	om-	1d	.	1G	-tri;	1g	-a
=72-	=72-	=72-	=72-	=72-	=72-	=72-	=72-
1c	-ni-	1e	que(m)	2r	.	2r	.
.	.	.	.	1c	per	2g\	.
1F	-a	2c/	om-	.	.	1.a	.
.	.	1f\	-ni-	2c/	que(m)	.	.
=73-	=73-	=73-	=73-	=73-	=73-	=73-	=73-
1.A	fac-	.	.	2.c/	om-	.	.
.	.	4e\	-a	.	.	2a\	.
.	.	4d\	.	4B-/	.	.	.
.	.	2c/	fac-	2A/	.	2f\	.
2G\	-ta	2B-/	ta	2.d\	-ni-	2g\	.
=74-	=74-	=74-	=74-	=74-	=74-	=74-	=74-
2.F/	ſunt;	1A	ſunt;	.	.	1.a	fac-
.	.	.	.	4c/	-a	.	.
.	.	.	.	1c	fac-	.	.
4E/	.	.	.	.	.	.	.
1D	.	1F	.	.	.	.	.
.	.	.	.	2B-/	-ta	4g\	-ta
.	.	.	.	.	.	4f\	.
=75-	=75-	=75-	=75-	=75-	=75-	=75-	=75-
1C	.	0G	.	1c	ſu(n)t;	0e	ſunt
2r	.	.	.	2r	.	.	.
1C/	Qui	.	.	1e\	Qui	.	.
=76-	=76-	=76-	=76-	=76-	=76-	=76-	=76-
!	!	!	!	!	!	!LO:SIC:v:t=custos g	!
.	.	2r	.	.	.	2r	.
!	!	!	!	!	!	!LO:PB:g=original	!
2C/	prop-	1c	Qui	2e\	p(ro)p-	1g	Qui
2C/	-ter	.	.	2e\	-ter	.	.
!	!	!	!	!LO:SIC:v:t=custos f	!	!	!
2C/	noS	2c/	prop-	2e\	noS	2g\	prop-
!	!	!	!	!LO:LB:g=original	!	!	!
=77-	=77-	=77-	=77-	=77-	=77-	=77-	=77-
1F	ho-	2c/	-ter	1f	ho-	2a\	-ter
.	.	2c/	noſ	.	.	2a\	nos
1G	-(m)i-	1B-	ho-	1d	-(m)i-	1.g	ho-
=78-	=78-	=78-	=78-	=78-	=78-	=78-	=78-
!	!	!LO:SIC:v:t=custos G	!	!	!	!	!
1C	-(n)es	1c	-mi-	1e	-(n)es,	.	.
.	.	.	.	.	.	2g\	-(m)i-
!LO:SIC:v:t=custos C	!	!LO:PB:g=original	!	!	!	!	!
2r	.	1G	-nes	2r	.	1g	-neS
!LO:LB:g=original	!	!	!	!	!	!	!
2C/	et	.	.	2e\	et	.	.
=79-	=79-	=79-	=79-	=79-	=79-	=79-	=79-
2C/	prop-	2r	.	2e\	prop-	2r	.
2C/	-ter	2c/	et	2e\	-ter	2g\	et
1F	n(os-	2c/	prop-	1f	noſ-	2a\	prop-
.	.	2c/	-ter	.	.	2a\	-ter
=80-	=80-	=80-	=80-	=80-	=80-	=80-	=80-
1G	.	1B-	n(os-	1d	-tra(m)	0g	n(os-
1C	-t)ram	1.c	-t)ram	1e	ſa-	.	.
=81-	=81-	=81-	=81-	=81-	=81-	=81-	=81-
2.F\	ſa-	.	.	2c/	-lu-	2f/	-t)ram
.	.	2c/	ſa-	2.f\	-tem	1a	ſa-
4G\	-lu-	.	.	.	.	.	.
4A\	-te(m)	2F/	-lu-	.	.	.	.
4B-\	.	.	.	4e\	.	.	.
1c\	.	2A/	-te(m),	4d\	.	2f/	-lu-
.	.	.	.	4c\	.	.	.
=82-	=82-	=82-	=82-	=82-	=82-	=82-	=82-
.	.	1G	.	1d	.	1g	-te(m),
2B-\	.	.	.	.	.	.	.
1c	.	2r	.	1c	.	1e	de-
.	.	1c\	de-	.	.	.	.
=83-	=83-	=83-	=83-	=83-	=83-	=83-	=83-
1.c	de-	.	.	1e	de-	1g	-ſcen-
.	.	2B-/	-ſcen-	.	.	.	.
!	!	!	!	!	!	!LO:SIC:v:t=custos a	!
.	.	2A/	-dit	1e	-ſce(n)-	1a	.
2B-\	-ſcen-	2G/	.	.	.	.	.
!	!	!	!	!	!	!LO:LB:g=original	!
=84-	=84-	=84-	=84-	=84-	=84-	=84-	=84-
2A\	-dit	1F	.	1f	-dit	1.a	-dit
2G\	.	.	.	.	.	.	.
2.F/	.	1c	.	2r	.	.	.
*	*	*	*	*	*ij	*	*
!	!	!	!	!LO:TX:t=P:problem:dalszy ciąg na 0197r	!	!	!
!	!	!	!	!LO:SIC:v:t=custos c	!	!	!
.	.	.	.	1c\	de-	2g\	de
4E/	de	.	.	.	.	.	.
=85-	=85-	=85-	=85-	=85-	=85-	=85-	=85-
1D	cae-	2r	.	.	.	1f	cae-
!	!	!	!	!LO:PB:g=original	!	!	!
.	.	2F/	de	2c\	-scen-	.	.
!LO:SIC:v:t=custos F	!	!	!	!	!	!	!
1C	-liS	1G	cae-	0c	-dit	1e	-liS,
*	*	*	*	*	*Xij	*	*
!LO:LB:g=original	!	!	!	!	!	!	!
=86-	=86-	=86-	=86-	=86-	=86-	=86-	=86-
*	*ij	*	*	*	*	*	*
!	!	!LO:SIC:v:t=custos c	!	!	!	!	!
1.F	de-	1A	-liS	.	.	2r	.
*	*	*	*	*	*	*	*ij
.	.	.	.	.	.	2f/	de-
!	!	!LO:LB:g=original	!	!	!	!	!
*	*	*	*ij	*	*	*	*
.	.	0c	de	1f	de	1a	-ſcen-
2F/	-ſcen-	.	.	.	.	.	.
=87-	=87-	=87-	=87-	=87-	=87-	=87-	=87-
1C	-dit	.	.	1e	cae-	1g	-dit
1D	de	1F	cae-	2d/	-lis	1.f	de-
.	.	.	.	2B-/	.	.	.
=88-	=88-	=88-	=88-	=88-	=88-	=88-	=88-
0C	cae-	0G	.	1c	.	.	.
.	.	.	.	.	.	4e/	.
.	.	.	.	.	.	4d/	.
.	.	.	.	[1c;<l	.	1e	cae-
=89-	=89-	=89-	=89-	=89-	=89-	=89-	=89-
0F;<l	-lis	0A;l	-lis	0c]	.	0f;<l	-liS
*	*Xij	*	*Xij	*	*	*	*Xij
=90||	=90||	=90||	=90||	=90||	=90||	=90||	=90||
1F	Et	0r	.	1r	.	0f	Et
1.c	in-	.	.	1F	Et	.	.
=91-	=91-	=91-	=91-	=91-	=91-	=91-	=91-
.	.	1F	Et	1.c	in-	1f	in-
2B-\	-car-	.	.	.	.	.	.
2A\	-na-	1.c	in-	.	.	1f	-car-
2G\	-tus	.	.	2B-/	-car-	.	.
=92-	=92-	=92-	=92-	=92-	=92-	=92-	=92-
1F	eſt	.	.	2A/	-na-	0a	-na-
.	.	2B-/	-car-	2G/	-tus	.	.
2r	.	2.A/	-na-	1F	eſt;	.	.
2F/	de	.	.	.	.	.	.
.	.	4G/	-tus	.	.	.	.
=93-	=93-	=93-	=93-	=93-	=93-	=93-	=93-
!	!	!	!	!	!	!LO:SIC:v:t=custos g	!
2F/	ſpi-	2F/	eſt	2r	.	1a	-tus
2F/	-ri-	2c/	de	2f\	de	.	.
!	!	!	!	!	!	!LO:LB:g=original	!
0C	-tu	2c/	ſpi-	2e\	ſpi-	1g	eſt,
.	.	2c/	-(ri-	2e\	-ri-	.	.
=94-	=94-	=94-	=94-	=94-	=94-	=94-	=94-
.	.	1G	-t)u	1c	-tu,	2r	.
.	.	.	.	.	.	2g\	de
!	!	!	!	!LO:SIC:v:t=custos g	!	!	!
2r	.	2r	.	2r	.	1g	ſpi-
!LO:SIC:v:t=custos C	!	!	!	!	!LO:LB:g=original	!	!
*	*	*	*	*	*ij	*	*
2C/	de	2G/	de	2g\	de	.	.
!LO:PB:g=original	!	!	!	!	!	!	!
=95-	=95-	=95-	=95-	=95-	=95-	=95-	=95-
1C	ſpi-	1c	ſpi-	2g\	ſpi-	1e	-ri-
.	.	.	.	2g\	-ri-	.	.
1F	-ri-	1A	-ri-	1f	-tu	2c/	-tu
*	*	*	*	*	*Xij	*	*
.	.	.	.	.	.	1f\	ſan-
=96-	=96-	=96-	=96-	=96-	=96-	=96-	=96-
!	!	!LO:SIC:v:t=custos f	!	!	!	!	!
2.D/	-tu	2F/	-tu	1f	.	.	.
!	!	!LO:LB:g=original	!	!	!	!	!
.	.	1f	ſan-	.	.	4e/	-cto,
4E/	ſan-	.	.	.	.	4d/	.
2F/	-cto;	.	.	1.a	ſan-	2c/	.
2D/	.	4e\	-cto,	.	.	2.d/	.
.	.	4d\	.	.	.	.	.
=97-	=97-	=97-	=97-	=97-	=97-	=97-	=97-
1A	.	2e\	.	.	.	.	.
.	.	.	.	.	.	4c/	.
.	.	2c/	.	2f\	-cto	1c	.
1G	.	1d	.	1g	.	.	.
.	.	.	.	.	.	2B-/	.
=98-	=98-	=98-	=98-	=98-	=98-	=98-	=98-
1C	.	1c	.	1e	ex	1c	ex
0F	ex	0c	ex	0f	Ma-	0a	.
=99-	=99-	=99-	=99-	=99-	=99-	=99-	=99-
.	.	.	.	.	.	.	.
1F	Ma-	1c	Ma-	1f	-ri-	1a	Ma-
=100-	=100-	=100-	=100-	=100-	=100-	=100-	=100-
1C	-ri-	1c	-ri-	0e	-a	1g	-ri-
2.c\	-a	1A	-a	.	.	0a	-a
4B-\	.	.	.	.	.	.	.
=101-	=101-	=101-	=101-	=101-	=101-	=101-	=101-
!LO:TX:t=P:problem:pomyłka w dwóch wartościach rytmicznych oznaczona "dziubkami"	!	!	!	!	!	!	!
2A\	uir-	1.c	uir-	1e	uir-	.	.
2G\	-gi-	.	.	.	.	.	.
!	!	!	!	!	!	!LO:SIC:v:t=custos f	!
1.F	-ne,	.	.	2.f\	-gi-	2a\	vir-
!	!	!	!	!	!	!LO:LB:g=original	!
.	.	2B-/	-gi-	.	.	1f\	.
.	.	.	.	8e\L	-ne;	.	.
.	.	.	.	8d\J	.	.	.
=102-	=102-	=102-	=102-	=102-	=102-	=102-	=102-
.	.	2A/	-ne	1.c	.	.	.
2F/	.	4G/	.	.	.	4e/	.
.	.	4F/	.	.	.	4d/	.
1C	.	2G/	.	.	.	2e/	-gi-
.	.	2G/	.	2c/	.	2e/	-ne
=103-	=103-	=103-	=103-	=103-	=103-	=103-	=103-
1r	.	1F	et	1A	.	1f	.
!LO:SIC:v:t=custos F	!	!	!	!LO:SIC:v:t=custos f	!	!	!
1C	Et	1c	.	1e	Et	1g	Et
!LO:LB:g=original	!	!	!	!LO:LB:g=original	!	!	!
=104-	=104-	=104-	=104-	=104-	=104-	=104-	=104-
1.F	ho-	1.c	ho-	2.f\	ho-	1.a	ho-
.	.	.	.	4e\	-mo	.	.
.	.	.	.	4d/	.	.	.
.	.	.	.	4c/	.	.	.
!	!	!LO:SIC:v:t=custos d	!	!	!	!	!
2E/	-mo-	2c/	-mo	1c\	fac  -	2g\	-mo
!	!	!LO:LB:g=original	!	!	!	!	!
=105-	=105-	=105-	=105-	=105-	=105-	=105-	=105-
1D	-fac-	1d	fac-	.	.	1f	fac-
.	.	.	.	4B-/	-tus	.	.
.	.	.	.	4A/	.	.	.
1D	-tuſ	1d	-tus	2B-/	.	1f	-tus
.	.	.	.	2B-/	eſt	.	.
=106-	=106-	=106-	=106-	=106-	=106-	=106-	=106-
!	!	!LO:TX:t=P:problem:wykreślone Dvo, wpisane \nCrucifix(us) vide infra\nTenor eſt in alt(us)\nNa dole karty na dorysowanej pięciolinii dopisany głos tenorowy	!	!	!	!	!
0C;l	eſt	0G;l	eſt.	0c;<l	.	0e;<l	eſt
*	*	*clefC4	*	*	*	*	*
=107||-	=107||-	=107||-	=107||-	=107||-	=107||-	=107||-	=107||-
!LO:TX:a:t=3	!	!LO:TX:a:t=1697. 4 Xbris	!	!LO:TX:a:t=7	!	!LO:TX:t=Crucifixuſ \ntacet&colon;	!
0r	.	1F	Cru-	00r	.	0ryy	.
.	.	1A	-ci-	.	.	.	.
=108-	=108-	=108-	=108-	=108-	=108-	=108-	=108-
1r	.	1B-	-fi-	.	.	0ryy	.
0F	Cru-	1A	-xus	.	.	.	.
=109-	=109-	=109-	=109-	=109-	=109-	=109-	=109-
.	.	2r	.	0r	.	0ryy	.
.	.	1c	e-	.	.	.	.
1A	-ci-	.	.	.	.	.	.
*	*	*2\left	*	*	*	*	*
.	.	2c\	-ti-	.	.	.	.
=110-	=110-	=110-	=110-	=110-	=110-	=110-	=110-
1B-	-fi-	2B-\	-am	1r	.	0ryy	.
.	.	4A\	pro-	.	.	.	.
.	.	4G\	.	.	.	.	.
1A	-xus	2.F/	.	0c	Cru-	.	.
.	.	4G/	.	.	.	.	.
=111-	=111-	=111-	=111-	=111-	=111-	=111-	=111-
2r	.	1A	.	.	.	0ryy	.
1c	e-	.	.	.	.	.	.
.	.	2F/	.	1e	-ci-	.	.
2c\	-ti-	2E/	.	.	.	.	.
=112-	=112-	=112-	=112-	=112-	=112-	=112-	=112-
2d\	-a(m)	1D	-no-	1f	-fi-	0ryy	.
2B-\	pro	.	.	.	.	.	.
1.c	no-	2C/	-bis	1e	-xus	.	.
.	.	4c\	e-	.	.	.	.
.	.	4B-\	-ti-	.	.	.	.
=113-	=113-	=113-	=113-	=113-	=113-	=113-	=113-
.	.	2A\	-am	2r	.	0ryy	.
4B-\	-bis,	4E/	.	1g	e-	.	.
!LO:SIC:v:t=custos G	!	!	!	!	!	!	!
4A\	.	4F/	.	.	.	.	.
!LO:LB:g=original	!	!	!	!	!	!	!
2G\	.	1G	pro	.	.	.	.
!	!	!	!	!LO:SIC:v:t=custos e	!	!	!
2.A\	.	.	.	2f\	-ti-	.	.
!	!	!	!	!LO:LB:g=original	!	!	!
=114-	=114-	=114-	=114-	=114-	=114-	=114-	=114-
.	.	2C/	.	2.e\	-am	0ryy	.
4B-\	.	.	.	.	.	.	.
4c\	.	1F	no-	.	.	.	.
4A\	.	.	.	8d\L	.	.	.
.	.	.	.	8c\J	.	.	.
2B-\	.	.	.	2d\	.	.	.
2c\	.	2E/	-bis	2e\	.	.	.
=115-	=115-	=115-	=115-	=115-	=115-	=115-	=115-
2A\	.	2F/	.	2.c/	pro	0ryy	.
*	*ij	*	*ij	*	*	*	*
1c	e-	2C/	pro	.	.	.	.
.	.	.	.	4d\	no-	.	.
.	.	2.C/	no-	4e\	-biS;	.	.
.	.	.	.	4f\	.	.	.
2c\	-ti-	.	.	2.g\	.	.	.
.	.	4D/	.	.	.	.	.
=116-	=116-	=116-	=116-	=116-	=116-	=116-	=116-
2B-\	-a(m)	2E/	.	.	.	0ryy	.
.	.	.	.	4e\	.	.	.
2A\	pro	2F/	.	2.a\	.	.	.
2.c\	no-	2C/	-bis	.	.	.	.
*	*	*	*Xij	*	*	*	*
.	.	.	.	4g\	.	.	.
.	.	1c\	pro	2.g\	.	.	.
4B-\	.	.	.	.	.	.	.
=117-	=117-	=117-	=117-	=117-	=117-	=117-	=117-
2A\	.	.	.	.	.	0ryy	.
.	.	.	.	4f\	.	.	.
!	!	!LO:TX:t=P:problem:kilka nut zaklejonych	!	!	!	!	!
4G/	.	2d\	nob-	1f	.	.	.
4F/	.	.	.	.	.	.	.
1G	.	2G/yy	.	.	.	.	.
.	.	1B-\yy	.	2e\	.	.	.
=118-	=118-	=118-	=118-	=118-	=118-	=118-	=118-
0F	-bis	.	.	1f	.	0ryy	.
*	*Xij	*	*	*	*	*	*
.	.	2c\	-Pon-	.	.	.	.
.	.	2A\	-ti-	2r	.	.	.
.	.	2F/	-o-	2c/	ſub	.	.
=119-	=119-	=119-	=119-	=119-	=119-	=119-	=119-
2r	.	2B-\	-Pi-	2d/	Pon-	0ryy	.
2C/	ſub	2.c\	-la-	2c/	-ti-	.	.
!	!	!	!	!LO:SIC:v:t=custos c	!	!	!
2.F/	Pon-	.	.	2A/	-o	.	.
.	.	4B-\	.	.	.	.	.
!	!	!	!	!LO:PB:g=original	!	!	!
.	.	4A\	.	1c\	Pi-	.	.
!LO:SIC:v:t=custos A	!	!	!	!	!	!	!
4G/	.	4G\	.	.	.	.	.
!LO:LB:g=original	!	!	!	!	!	!	!
=120-	=120-	=120-	=120-	=120-	=120-	=120-	=120-
2A\	-ti-	2F/	.	.	.	0ryy	.
2F/	-o	2A\	.	4B-/	-la-	.	.
.	.	.	.	4A/	-to	.	.
2G\	Pi-	2G/	.	2B-/	.	.	.
1A\	-la-	1C/	-to	2c/	.	.	.
=121-	=121-	=121-	=121-	=121-	=121-	=121-	=121-
.	.	.	.	1F	.	0ryy	.
4G/	-to,	2c\	Pi-	.	.	.	.
4F/	.	.	.	.	.	.	.
2G\	.	2B-\	-la-	2r	.	.	.
*	*	*	*	*	*ij	*	*
2A\	.	2A\	.	2c/	ſub	.	.
=122-	=122-	=122-	=122-	=122-	=122-	=122-	=122-
2D/	.	2G/	.	2d/	Pon-	0ryy	.
2A\	ſub	2F/	.	2e\	-ti-	.	.
!	!	!LO:TX:t=P:problem:kreska pseudotaktowa	!	!	!	!	!
2A\	Pon-	1c	-to	2c/	-o	.	.
2F/	-ti	.	.	1f\	Pi-	.	.
=123-	=123-	=123-	=123-	=123-	=123-	=123-	=123-
4A\	o-	2F/	Sub	.	.	0ryy	.
4G\	.	.	.	.	.	.	.
4A\	.	2.G/	Pon-	4e\	.	.	.
4B-\	.	.	.	4d\	.	.	.
2c\	.	.	.	2e\	.	.	.
.	.	4A/	.	.	.	.	.
2.B-\	-Pi-	2F/	-ti-	2.d\	-la-	.	.
=124-	=124-	=124-	=124-	=124-	=124-	=124-	=124-
.	.	2c\	-o	.	.	0ryy	.
4A\	-la-	.	.	4c/	.	.	.
1A	-to,	2.d\	Pi-	4B-/	.	.	.
.	.	.	.	4A/	.	.	.
.	.	.	.	1B-	.	.	.
.	.	4c\	.	.	.	.	.
!LO:SIC:v:t=custos A	!	!	!	!	!	!	!
2G\	.	2B-\	-la-	.	.	.	.
!LO:PB:g=original	!	!	!	!	!	!	!
=125-	=125-	=125-	=125-	=125-	=125-	=125-	=125-
1A	.	4c\	.	0A	-to	0ryy	.
*	*	*	*	*	*Xij	*	*
.	.	4B-\	.	.	.	.	.
.	.	4A\	.	.	.	.	.
.	.	4G\	.	.	.	.	.
2r	.	2F/	.	.	.	.	.
1F\	paſ-	2C/	-to	.	.	.	.
=126-	=126-	=126-	=126-	=126-	=126-	=126-	=126-
.	.	2D/	Paſ-	2r	.	0ryy	.
!	!	!	!	!LO:SIC:v:t=custos B-	!	!	!
2E/	-ſus	2E/	.	2c/	paſ-	.	.
!	!	!	!	!LO:LB:g=original	!	!	!
2D/	et	4F/	-ſ(us)	2B-/	-ſus	.	.
.	.	4G/	.	.	.	.	.
2C/	ſe-	2.A/	et	2.c/	et	.	.
=127-	=127-	=127-	=127-	=127-	=127-	=127-	=127-
2.F/	-pu-	.	.	.	.	0ryy	.
.	.	4G/	ſe-	4B-/	.	.	.
.	.	4F/	-pult-	4A/	.	.	.
4E/	-tus	4G/	.	4G/	.	.	.
1D	eſt,	2A/	-us	2F/	.	.	.
.	.	2F/	.	2f\	ſe-	.	.
=128-	=128-	=128-	=128-	=128-	=128-	=128-	=128-
1C	.	1G	eſt.	2e\	-pul-	0ryy	.
.	.	.	.	2.g\	-tus	.	.
2r	.	1C	.	.	.	.	.
.	.	.	.	4f\	.	.	.
*	*ij	*	*	*	*	*	*
1c\	paſ-	.	.	4e\	.	.	.
.	.	.	.	4d\	.	.	.
=129-	=129-	=129-	=129-	=129-	=129-	=129-	=129-
.	.	2r	.	4c/	.	0ryy	.
.	.	.	.	4B-/	.	.	.
2c\	-ſus	2c\	paſ-	4A/	.	.	.
.	.	.	.	4G/	.	.	.
2A\	et	2c\	-ſ(us)	4F/	.	.	.
.	.	.	.	4G/	.	.	.
2.F/	ſe-	2A/	et	4A/	.	.	.
.	.	.	.	4B-/	.	.	.
=130-	=130-	=130-	=130-	=130-	=130-	=130-	=130-
!	!	!LO:SIC:v:t=custos G	!	!	!	!	!
.	.	1F	ſe	4c/	.	0ryy	.
4G/	.	.	.	4B-/	.	.	.
4A\	.	.	.	4c/	.	.	.
4B-\	.	.	.	4d/	.	.	.
!	!	!LO:LB:g=original	!	!	!	!	!
4c\	.	4G/	.	4e\	.	.	.
!	!	!	!	!LO:SIC:v:t=custos g	!	!	!
4A\	.	4A/	.	4f\	.	.	.
!	!	!	!	!LO:LB:g=original	!	!	!
2.B-\	-pul-	4B-\	.	2.g\	.	.	.
.	.	4c\	.	.	.	.	.
=131-	=131-	=131-	=131-	=131-	=131-	=131-	=131-
.	.	2d\	pul-	.	.	0ryy	.
4A\	.	.	.	4f\	.	.	.
4G/	.	2B-\	-t(us)	1f	.	.	.
!LO:SIC:v:t=custos G	!	!	!	!	!	!	!
4F/	.	.	.	.	.	.	.
!LO:LB:g=original	!	!	!	!	!	!	!
2G\	.	1c	eſt	.	.	.	.
2G\	-tus	.	.	2e\	eſt.	.	.
=132-	=132-	=132-	=132-	=132-	=132-	=132-	=132-
!	!	!LO:TX:b:t=Verte retRo\n& Et reſurrexit	!	! 	!	!	!
0F;<l	eſt	0F;;l	.	0f;<l	.	0ryy	.
*	*Xij	*	*	*	*	*	*
!	!	!LO:LB:g=original	!	!	!	!LO:PB:g=original	!
=133||-	=133||-	=133||-	=133||-	=133||-	=133||-	=133||-	=133||-
*	*	*clefC3	*	*	*	*	*
!	!	!	!	!LO:TX:t=Et reſurre\nxit tacet.	!	!	!
0F	Et	00r	.	0ryy	.	00r	.
=134-	=134-	=134-	=134-	=134-	=134-	=134-	=134-
1.c	re-	.	.	0ryy	.	.	.
2A\	-ſur-	.	.	.	.	.	.
=135-	=135-	=135-	=135-	=135-	=135-	=135-	=135-
1B-	-re-	0r	.	0ryy	.	1.f	Et
2.A\	-xit	.	.	.	.	.	.
.	.	.	.	.	.	4e/	re-
4B-\	.	.	.	.	.	4d/	-ſu-
=136-	=136-	=136-	=136-	=136-	=136-	=136-	=136-
2c\	.	1r	.	0ryy	.	2e/	-re-
2d\	.	.	.	.	.	2f/	-xit
1B-	.	1.f	Et	.	.	1d	.
=137-	=137-	=137-	=137-	=137-	=137-	=137-	=137-
1A	.	.	.	0ryy	.	2.c/	.
.	.	4e\	re-	.	.	.	.
.	.	4d\	-ſu-	.	.	4B-/	.
*	*	*2\right	*	*	*	*	*
0r	.	2e\	-re-	.	.	2c/	.
.	.	2f\	-xit	.	.	2d/	.
=138-	=138-	=138-	=138-	=138-	=138-	=138-	=138-
.	.	1d	.	0ryy	.	1B-	.
*	*ij	*	*	*	*	*	*
1.F	Et	2.c/	.	.	.	1A	.
.	.	4B-/	.	.	.	.	.
=139-	=139-	=139-	=139-	=139-	=139-	=139-	=139-
.	.	4A/	.	0ryy	.	2r	.
!	!	!LO:SIC:v:t=custos d	!	!	!	!	!
.	.	4G/	.	.	.	.	.
!	!	!LO:PB:g=original	!	!	!	!	!
4E/	re-	2.d/	.	.	.	2f/	ter-
4D/	.	.	.	.	.	.	.
2E/	.	.	.	.	.	2g\	-ti-
.	.	4c/	.	.	.	.	.
!LO:SIC:v:t=custos D	!	!	!	!	!	!	!
2F/	-ſur-	1c\	.	.	.	1a\	-a
!LO:LB:g=original	!	!	!	!	!	!	!
=140-	=140-	=140-	=140-	=140-	=140-	=140-	=140-
1D	-re-	.	.	0ryy	.	.	.
.	.	2B-/	.	.	.	4g/	di-
.	.	.	.	.	.	4f/	-e
2C/	-xit	1c	.	.	.	2e/	.
*	*Xij	*	*	*	*	*	*
!	!	!	!	!	!	!LO:SIC:v:t=custos d	!
1F\	ter-	.	.	.	.	2f/	.
!	!	!	!	!	!	!LO:LB:g=original	!
=141-	=141-	=141-	=141-	=141-	=141-	=141-	=141-
.	.	2r	.	0ryy	.	1d	.
*	*	*	*ij	*	*	*	*
2G\	-ti-	2g\	et	.	.	.	.
1A	-a	2e\	re-	.	.	1c	.
.	.	1f\	-ſu-	.	.	.	.
=142-	=142-	=142-	=142-	=142-	=142-	=142-	=142-
1B-	di-	.	.	0ryy	.	1r	.
.	.	4e\	.	.	.	.	.
.	.	4d\	.	.	.	.	.
1A	-e;	2e\	-re-	.	.	1.c	ter-
.	.	2f\	.	.	.	.	.
=143-	=143-	=143-	=143-	=143-	=143-	=143-	=143-
2r	.	1g	-xit	0ryy	.	.	.
*	*ij	*	*Xij	*	*	*	*
2G/	ter-	.	.	.	.	2d/	-ti-
2A\	-ti-	1r	.	.	.	2c/	-a
2F/	-a	.	.	.	.	2A/	di-
=144-	=144-	=144-	=144-	=144-	=144-	=144-	=144-
2.G\	di-	2r	.	0ryy	.	1B-	-e
.	.	2g\	ter-	.	.	.	.
4F/	.	.	.	.	.	.	.
1D	-e	2a\	-ti-	.	.	2A/	.
*	*Xij	*	*	*	*	*	*
.	.	2f\	-a	.	.	2d/	.
=145-	=145-	=145-	=145-	=145-	=145-	=145-	=145-
2r	.	2.g\	di-	0ryy	.	2c/	.
1G	ter-	.	.	.	.	2.d/	.
.	.	4f\	-e,	.	.	.	.
.	.	1d	.	.	.	.	.
.	.	.	.	.	.	4e/	.
2F/	-ti-	.	.	.	.	4f/	.
.	.	.	.	.	.	4d/	.
=146-	=146-	=146-	=146-	=146-	=146-	=146-	=146-
!	!	!LO:SIC:v:t=custos d	!	!	!	!	!
2E/	-a	2r	.	0ryy	.	2e/	.
!	!	!LO:LB:g=original	!	!	!	!	!
2D/	di-	2d/	.	.	.	2f/	.
1C	-e;	2e\	.	.	.	1g	.
.	.	2c/	.	.	.	.	.
=147-	=147-	=147-	=147-	=147-	=147-	=147-	=147-
1r	.	1.d	.	0ryy	.	0f	.
2r	.	.	.	.	.	.	.
1F\	ſe-	4c/	.	.	.	.	.
.	.	4B-/	.	.	.	.	.
=148-	=148-	=148-	=148-	=148-	=148-	=148-	=148-
.	.	1A	.	0ryy	.	2r	.
!LO:SIC:v:t=custos A	!	!	!	!	!	!LO:SIC:v:t=custos f	!
2F/	-cu(n)-	.	.	.	.	2f\	ſe-
!LO:LB:g=original	!	!	!	!	!	!LO:LB:g=original	!
2.A\	-dum	2r	.	.	.	2f\	-cun-
.	.	2F/	ſe-	.	.	2f\	-dum
4B-\	.	.	.	.	.	.	.
=149-	=149-	=149-	=149-	=149-	=149-	=149-	=149-
2c\	ſcri-	2.A/	-cun-	0ryy	.	2e/	ſcri-
2F/	.	.	.	.	.	2.f\	-ptu-
.	.	4B-/	-du(m)	.	.	.	.
1A	-ptu-	4c\	.	.	.	.	.
.	.	4d\	.	.	.	4e/	-raS
.	.	1c\	.	.	.	4d/	.
.	.	.	.	.	.	4c/	.
=150-	=150-	=150-	=150-	=150-	=150-	=150-	=150-
1G	-raS;	.	.	0ryy	.	1d	.
.	.	2B-/	ſcri-	.	.	.	.
2r	.	1.A	-ptu-	.	.	1c	.
*	*ij	*	*	*	*	*	*
1F\	ſe-	.	.	.	.	.	.
=151-	=151-	=151-	=151-	=151-	=151-	=151-	=151-
.	.	.	.	0ryy	.	2r	.
*	*	*	*	*	*	*	*ij
2D/	-cu(n)-	2F/	-ras,	.	.	2f/	ſe-
2E/	-dum	2G/	.	.	.	2e/	-cun-
2F/	ſcri-	1A/	.	.	.	2c/	-dum
=152-	=152-	=152-	=152-	=152-	=152-	=152-	=152-
1D	-ptu-	.	.	0ryy	.	4d/	ſcri-
.	.	.	.	.	.	4c/	.
.	.	4G/	.	.	.	1f	-ptu-
.	.	4F/	.	.	.	.	.
!	!	!LO:SIC:v:t=custos F	!	!	!	!	!
1C	-ras	1G	.	.	.	.	.
*	*Xij	*	*	*	*	*	*
.	.	.	.	.	.	2e/	.
!	!	!LO:LB:g=original	!	!	!	!	!
=153-	=153-	=153-	=153-	=153-	=153-	=153-	=153-
1r	.	1F	.	0ryy	.	1f	.
1C	Et	2r	.	.	.	1e	-raS
*	*	*	*	*	*	*	*Xij
.	.	1c\	Et	.	.	.	.
=154-	=154-	=154-	=154-	=154-	=154-	=154-	=154-
1.F	a-	.	.	0ryy	.	0r	.
.	.	2c/	a-	.	.	.	.
.	.	1f	-ſcen-	.	.	.	.
2F/	-ſcen-	.	.	.	.	.	.
=155-	=155-	=155-	=155-	=155-	=155-	=155-	=155-
2.A\	-dit	2.e\	-dit	0ryy	.	2r	.
!	!	!	!	!	!	!LO:SIC:v:t=custos B-	!
.	.	.	.	.	.	1c	et
4B-\	.	4d\	in	.	.	.	.
2c\	in	2e\	cae-	.	.	.	.
!	!	!	!	!	!	!LO:LB:g=original	!
*	*	*	*	*	*	*clefC3	*
2.d\	cae-	2.f\	-lum	.	.	2B-/	a-
=156-	=156-	=156-	=156-	=156-	=156-	=156-	=156-
.	.	.	.	0ryy	.	1A	-ſcen-
!LO:SIC:v:t=custos c	!	!	!	!	!	!	!
4c\	-lu(m)	4e\	.	.	.	.	.
!LO:PB:g=original	!	!	!	!	!	!	!
1c	.	4d\	.	.	.	.	.
.	.	4c\	.	.	.	.	.
.	.	2.d/	.	.	.	1G	-dit
2B-\	.	.	.	.	.	.	.
.	.	8c/L	.	.	.	.	.
.	.	8B-/J	.	.	.	.	.
=157-	=157-	=157-	=157-	=157-	=157-	=157-	=157-
1c	.	2.A/	.	0ryy	.	2.F/	in
.	.	4B-/	.	.	.	4G/	cae-
1r	.	2c/	.	.	.	2A/	-lum:
.	.	1d\	.	.	.	2.B-/	.
=158-	=158-	=158-	=158-	=158-	=158-	=158-	=158-
2r	.	.	.	0ryy	.	.	.
.	.	.	.	.	.	4A/	.
*	*ij	*	*	*	*	*	*
2C/	et	2c/	.	.	.	1A	.
2D/	a-	1B-	.	.	.	.	.
2E/	.	.	.	.	.	2G/	.
=159-	=159-	=159-	=159-	=159-	=159-	=159-	=159-
2.F/	-ſcen-	1A	.	0ryy	.	2.A/	.
4G/	.	.	.	.	.	4B-/	.
2A\	-dit	2r	.	.	.	1c	.
!	!	!LO:SIC:v:t=custos e	!	!	!	!	!
2F/	in	2f\	ſe-	.	.	.	.
!	!	!LO:LB:g=original	!	!	!	!	!
=160-	=160-	=160-	=160-	=160-	=160-	=160-	=160-
1A	cae-	2e\	-det	0ryy	.	2r	.
.	.	2f\	ad	.	.	2c/	ſe-
1G	.	1.g	dex-	.	.	2d/	-det
.	.	.	.	.	.	2d/	ad
=161-	=161-	=161-	=161-	=161-	=161-	=161-	=161-
0.C	-lu(m)	.	.	0ryy	.	2.e\	dex-
*	*Xij	*	*	*	*	*	*
.	.	2g\	-te-	.	.	.	.
!	!	!	!	!	!	!LO:SIC:v:t=custos c	!
.	.	.	.	.	.	4d\	-te-
!	!	!	!	!	!	!LO:PB:g=original	!
*	*	*	*	*	*	*clefC2	*
.	.	1e	-ra(m)	.	.	2c/	-ram
.	.	.	.	.	.	1g\	pa-
=162-	=162-	=162-	=162-	=162-	=162-	=162-	=162-
.	.	1c	.	0ryy	.	.	.
.	.	.	.	.	.	4f\	-tris;
.	.	.	.	.	.	4e\	.
2r	.	2d/	.	.	.	4f\	.
.	.	.	.	.	.	4g\	.
1F\	ſe-	1c\	pa-	.	.	1a\	.
=163-	=163-	=163-	=163-	=163-	=163-	=163-	=163-
.	.	.	.	0ryy	.	.	.
2F/	-det	4B-/	-tris	.	.	4g\	.
.	.	4A/	.	.	.	4f\	.
2E-X/	ad	4B-/	.	.	.	4g\	.
.	.	4A/	.	.	.	4f\	.
2D/	dex-	4G/	.	.	.	1f\	.
.	.	4F/	.	.	.	.	.
=164-	=164-	=164-	=164-	=164-	=164-	=164-	=164-
!LO:SIC:v:t=custos D	!	!	!	!	!	!	!
1C	-te-	1G	.	0ryy	.	.	.
.	.	.	.	.	.	2e/	.
!LO:LB:g=original	!	!	!	!	!	!	!
2.D/	-ram	0F	.	.	.	1f	.
4Eny/	.	.	.	.	.	.	.
=165-	=165-	=165-	=165-	=165-	=165-	=165-	=165-
2F/	.	.	.	0ryy	.	2r	.
2A\	pa-	.	.	.	.	2c/	ſe-
1G	-tris,	2r	.	.	.	2d/	-det
.	.	2B-/	ſe-	.	.	2d/	ad
=166-	=166-	=166-	=166-	=166-	=166-	=166-	=166-
1C	.	2.c/	-det	0ryy	.	2.e/	dex-
.	.	4c/	ad	.	.	4f/	-te
2r	.	2B-/	dex-	.	.	2g\	.
!	!	!	!	!	!	!LO:LB:g=original	!
*	*ij	*	*	*	*	*	*
2F/	ſe-	2A/	-te-	.	.	4c/	-ram
.	.	.	.	.	.	4d/	.
=167-	=167-	=167-	=167-	=167-	=167-	=167-	=167-
!	!	!LO:SIC:v:t=custos d	!	!	!	!	!
2E/	-det	1G	-ra(m)	0ryy	.	4e/	pa-
.	.	.	.	.	.	4f/	-tris;
2C/	ad	.	.	.	.	4g\	.
.	.	.	.	.	.	4e\	.
!	!	!LO:PB:g=original	!	!	!	!	!
2.D/	dex-	1d	pa-	.	.	4f\	.
.	.	.	.	.	.	4g\	.
.	.	.	.	.	.	2.a\	.
4E/	.	.	.	.	.	.	.
=168-	=168-	=168-	=168-	=168-	=168-	=168-	=168-
2F/	-te-	2.c/	-tris;	0ryy	.	.	.
.	.	.	.	.	.	4g\	.
2C/	-ram	.	.	.	.	2.g\	.
.	.	4B-/	.	.	.	.	.
1D	pa-	2A/	.	.	.	.	.
.	.	.	.	.	.	4f\	.
.	.	4G/	.	.	.	1f\	.
.	.	4F/	.	.	.	.	.
=169-	=169-	=169-	=169-	=169-	=169-	=169-	=169-
1C	.	1G	.	0ryy	.	.	.
.	.	.	.	.	.	2e/	.
1F;<l	-tris	1F;l	.	.	.	1f;<l	.
*	*Xij	*	*	*	*	*	*
=170||-	=170||-	=170||-	=170||-	=170||-	=170||-	=170||-	=170||-
00r	.	1F	Et	1f	Et	0a	Et
.	.	2F/	i-	2f\	i-	.	.
.	.	2F/	-te-	2f\	-te-	.	.
=171-	=171-	=171-	=171-	=171-	=171-	=171-	=171-
.	.	2.c/	-ru(m)	2.e\	-rum	1g	i-
.	.	4B-/	ven-	4d\	.	.	.
.	.	2c/	-tu-	2e\	uen-	1a	-te-
.	.	2.d/	-rus	2.f\	-tu-	.	.
=172-	=172-	=172-	=172-	=172-	=172-	=172-	=172-
1F	Et	.	.	.	.	1.a	-rum
.	.	4c/	.	4e\	.	.	.
.	.	1c	eſt	4d\	-rus	.	.
.	.	.	.	4c\	.	.	.
2F/	i-	.	.	2d\	eſt	.	.
!LO:SIC:v:t=custos A	!	!	!	!LO:SIC:v:t=custos c	!	!	!
2G/	-te-	2B-/	.	2d\	.	4g\	.
.	.	.	.	.	.	4f\	.
!LO:LB:g=original	!	!	!	!LO:LB:g=original	!	!LO:LB:g=original	!
=173-	=173-	=173-	=173-	=173-	=173-	=173-	=173-
2.A\	-rum	1.c	.	1c	.	2.e/	ven-
4B-\	.	.	.	.	.	4d/	.
2c\	uen-	.	.	0r	.	2e/	-tu-
!	!	!LO:SIC:v:t=custos A	!	!	!	!	!
2.d\	-tu-	2B-/	.	.	.	2.f/	-rus
!	!	!LO:LB:g=original	!	!	!	!	!
=174-	=174-	=174-	=174-	=174-	=174-	=174-	=174-
.	.	1A	.	.	.	.	.
4c\	-rus	.	.	.	.	4e/	.
1c	eſt;	.	.	.	.	4d/	.
.	.	.	.	.	.	4c/	.
.	.	1G	.	1g	cum	2d/	.
2B-\	.	.	.	.	.	2d/	.
=175-	=175-	=175-	=175-	=175-	=175-	=175-	=175-
1c	.	2r	.	2g\	glo-	1c	eſt,
.	.	2c/	cum	2g\	-ri-	.	.
1r	.	2c/	glo-	2e\	-a	1r	.
.	.	2d/	-ri-	2f\	iu-	.	.
=176-	=176-	=176-	=176-	=176-	=176-	=176-	=176-
1c	.	2e\	-a	2.g\	-di-	2r	.
.	.	1c	iu-	.	.	2e/	cum
.	.	.	.	4f\	-ca-	.	.
2c\	cum	.	.	2e\	-re	1g	glo-
2B-\	glo-	2d\	-di-	2.d/	.	.	.
=177-	=177-	=177-	=177-	=177-	=177-	=177-	=177-
2A\	-ri-	2e\	-ca-	.	.	1a	.
.	.	.	.	4c/	.	.	.
2F/	-a	2f\	-re	1c	.	.	.
1G	iu-	1d	.	.	.	1g	-ri-
.	.	.	.	2B-/	.	.	.
=178-	=178-	=178-	=178-	=178-	=178-	=178-	=178-
2A\	-di-	0c	.	1c	.	2e/	-a
4F/	-ca-	.	.	.	.	1f	iu-
4G/	-re	.	.	.	.	.	.
4A\	.	.	.	2r	.	.	.
4B-\	.	.	.	.	.	.	.
1c\	.	.	.	2g\	ui-	2e/	-di-
=179-	=179-	=179-	=179-	=179-	=179-	=179-	=179-
.	.	0r	.	2a\	-uos	1d	-ca-
2B-\	.	.	.	2.g\	et	.	.
!LO:SIC:v:t=custos C	!	!	!	!	!	!	!
1c	.	.	.	.	.	1c	-re,
.	.	.	.	4f\	.	.	.
.	.	.	.	4e\	.	.	.
!	!	!	!	!LO:SIC:v:t=custos e	!	!	!
.	.	.	.	4d\	.	.	.
!LO:LB:g=original	!	!	!	!LO:PB:g=original	!	!	!
=180-	=180-	=180-	=180-	=180-	=180-	=180-	=180-
1C	ui-	0c	vi-	1e	.	2r	.
!	!	!	!	!	!	!LO:SIC:v:t=custos a	!
.	.	.	.	.	.	2g\	vi-
!	!	!	!	!	!	!LO:LB:g=original	!
1.F	-uos	.	.	2.f\	mor-	1.a	-uoS
.	.	.	.	8e\L	-tu-	.	.
.	.	.	.	8d\J	.	.	.
=181-	=181-	=181-	=181-	=181-	=181-	=181-	=181-
.	.	2.f\	-uos	2c/	-os;	.	.
2D/	.	.	.	2.d/	.	4g\	et
.	.	4e\	[et]	.	.	4f\	mor-
2.G/	et	2d\	mor-	.	.	2g\	-tu-
.	.	.	.	4c/	.	.	.
.	.	2d\	-tu-	4B-/	.	2d/	-oS;
4F/	.	.	.	4A/	.	.	.
=182-	=182-	=182-	=182-	=182-	=182-	=182-	=182-
2E/	mor-	2.c/	-os,	2G/	.	2e/	.
2C/	-tu-	.	.	2.c/	.	1g	.
!	!	!LO:SIC:v:t=custos A	!	!	!	!	!
.	.	4B-/	.	.	.	.	.
!	!	!LO:LB:g=original	!	!	!	!	!
2D/	-oS;	2A/	.	.	.	.	.
.	.	.	.	8B-/L	.	.	.
.	.	.	.	8A/J	.	.	.
2D/	.	4G/	.	2B-/	.	1f\	.
.	.	4F/	.	.	.	.	.
=183-	=183-	=183-	=183-	=183-	=183-	=183-	=183-
1C	.	2G/	.	1c	.	.	.
.	.	2G/	.	.	.	2e/	.
1r	.	1F	.	1A	.	1f	.
=184-	=184-	=184-	=184-	=184-	=184-	=184-	=184-
1.F	cu-	1.c	cu-	1.f	cu-	1.a	cu-
2F/	-ius	2c/	-ius	2f\	-ius	2a\	-ius
=185-	=185-	=185-	=185-	=185-	=185-	=185-	=185-
1F	re-	1c	re-	1f	re-	1a	re-
1C	-gni	2.c/	-gni	0e	-gni	1g	-gni
.	.	4B-/	.	.	.	.	.
=186-	=186-	=186-	=186-	=186-	=186-	=186-	=186-
1.c	no(n)	2A/	.	.	.	0a	.
.	.	2G/	.	.	.	.	.
.	.	1F	.	2r	.	.	.
4B-\	e-	.	.	1f\	no(n)	.	.
4c\	-rit	.	.	.	.	.	.
=187-	=187-	=187-	=187-	=187-	=187-	=187-	=187-
2d\	.	0r	.	.	.	00r	.
!	!	!	!	!LO:SIC:v:t=custos a	!	!	!
2c\	.	.	.	2g\	e-	.	.
!LO:SIC:v:t=custos c	!	!	!	!LO:LB:g=original	!	!	!
2A\	.	.	.	2a\	-rit	.	.
!LO:PB:g=original	!	!	!	!	!	!	!
2c\	fi-	.	.	2.g\	.	.	.
=188-	=188-	=188-	=188-	=188-	=188-	=188-	=188-
2B-\	-nis;	2r	.	.	.	.	.
.	.	.	.	4f\	fi-	.	.
2A\	.	2F/	non	1f	-nis;	.	.
1G	.	4B-/	e-	.	.	.	.
.	.	4A/	-rit	.	.	.	.
.	.	4B-/	fi-	2e\	.	.	.
.	.	4c/	-nis	.	.	.	.
=189-	=189-	=189-	=189-	=189-	=189-	=189-	=189-
1F	.	2.d/	.	1.f	.	1.a	non
.	.	4c/	.	.	.	.	.
1r	.	4A/	.	.	.	.	.
!	!	!LO:SIC:v:t=custos c	!	!	!	!	!
.	.	4B-/	.	.	.	.	.
!	!	!LO:LB:g=original	!	!	!	!	!
.	.	2c/	.	2e\	.	2g\	.
=190-	=190-	=190-	=190-	=190-	=190-	=190-	=190-
0r	.	2F/	.	2d/	.	2f/	e-
.	.	2.A/	.	2c/	.	2e/	-rit
.	.	.	.	1B-	.	1d	fi-
.	.	8G/L	.	.	.	.	.
.	.	8F/J	.	.	.	.	.
.	.	2G/	.	.	.	.	.
=191-	=191-	=191-	=191-	=191-	=191-	=191-	=191-
!	!	!	!	!	!	!LO:SIC:v:t=custos a	!
1.F	Et	1A	.	1A	.	2c/	-niS:
!	!	!	!	!	!	!LO:PB:g=original	!
.	.	.	.	.	.	1a	Et
.	.	1r	.	1.A	et	.	.
2E/	in	.	.	.	.	2g\	in
=192-	=192-	=192-	=192-	=192-	=192-	=192-	=192-
2D/	ſpi-	1F	Et	.	.	2f/	ſpi-
2D/	-ri-	.	.	2B-/	in	2f/	-ri-
1C	-tu(m);	1G	in	1.c	ſpi-	0e	-tum;
=193-	=193-	=193-	=193-	=193-	=193-	=193-	=193-
1r	.	1.A	ſpi-	.	.	.	.
.	.	.	.	2c/	  ri-	.	.
1.c	ſanc-	.	.	1c	-tu(m);	1r	.
.	.	2A/	-ri-	.	.	.	.
=194-	=194-	=194-	=194-	=194-	=194-	=194-	=194-
.	.	1A	-tu(m)	0r	.	1e	ſan-
2B-\	-tu(m)	.	.	.	.	.	.
2A\	do-	1c	ſanc-	.	.	1f	-ctu(m)
2A\	-mi-	.	.	.	.	.	.
=195-	=195-	=195-	=195-	=195-	=195-	=195-	=195-
1G	-(num)	1d	-tu(m)	1r	.	1.g	do-
1r	.	1.e	do-	1.c	ſan-	.	.
.	.	.	.	.	.	2g\	-mi-
=196-	=196-	=196-	=196-	=196-	=196-	=196-	=196-
1C	et	.	.	.	.	1g	-(num);
.	.	2e\	-mi-	2c/	-ctu(m)	.	.
1F	ui-	1c	-num	2A/	do-	1r	.
!	!	!	!	!LO:SIC:v:t=custos G	!	!	!
.	.	.	.	2A/	-mi-	.	.
!	!	!	!	!LO:LB:g=original	!	!	!
=197-	=197-	=197-	=197-	=197-	=197-	=197-	=197-
2E/	-ui-	1e	et	2G/	-nu(m)	1g	et
!LO:SIC:v:t=custos F	!	!	!	!	!	!	!
2C/	-fi-	.	.	2c/	et	.	.
!LO:LB:g=original	!	!LO:SIC:v:t=custos f	!	!	!	!	!
2.F/	-can-	1f	.	1.c	ui-	0a	ui-
4G/	.	.	.	.	.	.	.
!	!	!LO:PB:g=original	!	!	!	!	!
=198-	=198-	=198-	=198-	=198-	=198-	=198-	=198-
2A\	-tem;	2.f\	ui-	.	.	.	.
2F/	.	.	.	2c/	-ui-	.	.
.	.	4e\	-ui-	.	.	.	.
2G\	.	2d/	-fi-	2B-/	-fi-	2g\	-ui-
2A\	.	2c/	-can-	2.c/	-can-	2f/	-fi-
=199-	=199-	=199-	=199-	=199-	=199-	=199-	=199-
1G	.	1d	-te(m),	.	.	1g	-can-
.	.	.	.	8B-/L	-tem,	.	.
.	.	.	.	8A/J	.	.	.
.	.	.	.	2B-/	.	.	.
1C	.	1c	.	0c	.	2.e/	-tem
.	.	.	.	.	.	4f/	.
=200-	=200-	=200-	=200-	=200-	=200-	=200-	=200-
2r	.	2r	.	.	.	0g	.
1c	qui	1e	Qui	.	.	.	.
.	.	.	.	2r	.	.	.
2c\	ex	2e\	ex	1c\	qui	.	.
=201-	=201-	=201-	=201-	=201-	=201-	=201-	=201-
2A\	p(at)-	1.f	pa-	.	.	0r	.
2F/	-re	.	.	2c/	ex	.	.
1.B-	fi-	.	.	1.d	p(a-	.	.
.	.	2f\	-tre	.	.	.	.
=202-	=202-	=202-	=202-	=202-	=202-	=202-	=202-
.	.	1f	fi-	.	.	1r	.
2A\	-li-	.	.	2c/	-t)re	.	.
!	!	!	!	!	!	!LO:SIC:v:t=custos a	!
2G\	-o-	2g\	-li-	2B-/	fi-	2r	.
!	!	!	!	!	!	!LO:LB:g=original	!
2.A\	-q(ue)	2e\	-o-	2c/	-li-	2a\	qui
=203-	=203-	=203-	=203-	=203-	=203-	=203-	=203-
.	.	0f	-q(ue)	1F	  o-	2a\	ex
4G/	pro-	.	.	.	.	.	.
4F/	-ce-	.	.	.	.	2a\	p(a-
4E/	-dit;	.	.	.	.	.	.
2D/	.	.	.	2.A/	-q(ue)	1a	-t)re
1F\	.	.	.	.	.	.	.
.	.	.	.	4B-/	pro-	.	.
=204-	=204-	=204-	=204-	=204-	=204-	=204-	=204-
.	.	1f	pro-	2c/	.	2a\	fi-
!LO:SIC:v:t=custos e	!	!	!	!LO:SIC:v:t=custos c	!	!	!
2D/	.	.	.	2d/	.	2f\	-li-
!LO:LB:g=original	!	!	!	!LO:LB:g=original	!	!	!
*	*	*	*	*lig	*	*	*
2E/	.	2e\	-ce-	1c	-ce-	2g\	-o-
2F/	.	2c/	-dit;	.	.	2.a\	-q(ue)
=205-	=205-	=205-	=205-	=205-	=205-	=205-	=205-
*lig	*	*	*	*	*	*	*
1D	.	2d/	.	1F	.	.	.
.	.	.	.	.	.	4g\	pro-
.	.	2B-/	.	.	.	1f	-ce-
*	*	*	*	*Xlig	*	*	*
!	!	!LO:SIC:v:t=custos A	!	!	!	!	!
1C	.	1c	.	1G	-dit,	.	.
.	.	.	.	.	.	2e/	-dit;
*Xlig	*	*	*	*	*	*	*
!	!	!LO:LB:g=original	!	!	!	!	!
=206-	=206-	=206-	=206-	=206-	=206-	=206-	=206-
2r	.	2A/	.	1F	.	1f	.
2F/	qui	2c/	qui	.	.	.	.
1F	cu(m)	1A	cu(m)	2r	.	2r	.
.	.	.	.	2c\	qui	2f/	qui
=207-	=207-	=207-	=207-	=207-	=207-	=207-	=207-
1D	p(at)-	1F	p(a-	1d	cu(m)	1f	cu(m)
1C	-re;	1c	-t)re	1e	p(a-	1g	p(a-
=208-	=208-	=208-	=208-	=208-	=208-	=208-	=208-
2r	.	2r	.	1f	-t)re;	1a	-t)re;
2F/	e(t)	2c/	et	.	.	.	.
1F	fi-	1A	fi-	2r	.	2r	.
.	.	.	.	2c\	et	2f/	et
=209-	=209-	=209-	=209-	=209-	=209-	=209-	=209-
1D	-li-	1F	-li-	1d	fi-	1f	fi-
1C	-o;	1c	-o	1e	-li-	1g	-li-
=210-	=210-	=210-	=210-	=210-	=210-	=210-	=210-
2r	.	2r	.	1f	-o;	1a	-o;
1F	ſi-	1A	ſi-	.	.	.	.
!	!	!	!	!	!	!LO:SIC:v:t=custos c	!
.	.	.	.	0r	.	2r	.
!	!	!	!	!	!	!LO:LB:g=original	!
2G\	-mul	2B-/	-mul	.	.	2g\	ſi-
=211-	=211-	=211-	=211-	=211-	=211-	=211-	=211-
2.A\	a-	2.c/	a-	.	.	2f\	-mul
.	.	.	.	.	.	2e/	.
4G\	-do-	4B-/	-do-	.	.	.	.
2A\	-ra-	2c/	.	2r	.	2.f/	a-
2.B-\	-tur;	1d\	.	1f\	ſi-	.	.
.	.	.	.	.	.	4e/	-do-
=212-	=212-	=212-	=212-	=212-	=212-	=212-	=212-
.	.	.	.	.	.	2d/	-ra-
!LO:SIC:v:t=custos A	!	!	!	!	!	!	!
4A\	.	.	.	.	.	.	.
!LO:LB:g=original	!	!	!	!	!	!	!
1A	.	2e\	.	2e\	-mul	2c/	-tur;
.	.	2f\	.	1d	.	1B-	.
2G\	.	2g\	.	.	.	.	.
=213-	=213-	=213-	=213-	=213-	=213-	=213-	=213-
1A	.	1e	.	2.c/	a-	1A	.
.	.	.	.	4B-/	-do-	.	.
*	*	*col	*	*	*	*	*
1D	et	2.f\	.	4A/	.	2r	.
!	!	!	!	!LO:SIC:v:t=custos B	!	!	!
.	.	.	.	4G/	.	.	.
!	!	!	!	!LO:PB:g=original	!	!	!
.	.	.	.	2.B-/	-ra-	1d/	et
!	!	!LO:SIC:v:t=custos d	!	!	!	!	!
.	.	4e\	.	.	.	.	.
*	*	*Xcol	*	*	*	*	*
!	!	!LO:LB:g=original	!	!	!	!	!
=214-	=214-	=214-	=214-	=214-	=214-	=214-	=214-
2G/	con-	2d/	-ra-	.	.	.	.
.	.	.	.	4A/	-tur,	.	.
2C/	-glo-	2c/	-tur;	1A	.	2e/	con-
2D/	-ri-	1B-	.	.	.	2f/	-glo-
2E/	-fi-	.	.	2G/	.	2g\	-ri-
=215-	=215-	=215-	=215-	=215-	=215-	=215-	=215-
1F	-ca-	1A	.	2A/	.	2c/	 fi-
.	.	.	.	2A/	et	1f	-ca-
00C	-tur;	2r	.	2.c/	con-	.	.
.	.	1G/	et	.	.	4e/	-tur;
.	.	.	.	4c/	-glo-	4d/	.
=216-	=216-	=216-	=216-	=216-	=216-	=216-	=216-
.	.	.	.	2c/	-ri-	4e/	.
.	.	.	.	.	.	4f/	.
.	.	2G/	con	2c/	-fi-	2.g\	.
.	.	1.c	glo	2A/	-ca-	.	.
.	.	.	.	.	.	4f\	.
!	!	!	!	!	!	!LO:SIC:v:t=custos A	!
.	.	.	.	4G/	-tur,	1f\	.
.	.	.	.	4F/	.	.	.
=217-	=217-	=217-	=217-	=217-	=217-	=217-	=217-
.	.	.	.	1G	.	.	.
!	!	!	!	!	!	!LO:LB:g=original	!
.	.	2c/	  ri-	.	.	2e/	.
2r	.	2.A/	-fi-	0F	.	0f	tur:
*	*ij	*	*	*	*	*	*
2F/	et-	.	.	.	.	.	.
.	.	4B-/	-ca-	.	.	.	.
=218-	=218-	=218-	=218-	=218-	=218-	=218-	=218-
2F/	-con-	2c/	-tur,-	.	.	.	.
2D/	-glo-	2.d/	.	.	.	.	.
2E/	-ri-	.	.	2r	.	2r	.
.	.	4c/	.	.	.	.	.
*	*	*	*	*	*ij	*	*ij
2F/	-fi-	1c\	.	2A/	et	2f/	et
=219-	=219-	=219-	=219-	=219-	=219-	=219-	=219-
1D	-ca-	.	.	2A/	con-	2f/	con-
.	.	2B-/	.	2F/	-glo-	2d/	-glo-
1C	-tur	1c	.	2G/	-ri-	2.e/	-ri-
*	*Xij	*	*	*	*	*	*
!	!	!	!	!LO:SIC:v:t=custos B-	!	!	!
.	.	.	.	2A/	-fi-	.	.
.	.	.	.	.	.	4f\	fi -
!	!	!	!	!LO:LB:g=original	!	!	!
=220-	=220-	=220-	=220-	=220-	=220-	=220-	=220-
1r	.	1r	.	1B-	-ca-	1d	-ca-
2r	.	1.e	-Qui	2A/	-tur;	2c/	-tur;
*	*	*	*	*	*Xij	*	*Xij
1C/	qui	.	.	1c\	qui	1g\	qui
=221-	=221-	=221-	=221-	=221-	=221-	=221-	=221-
.	.	.	.	.	.	.	.
!LO:SIC:v:t=custos C	!	!	!	!	!	!	!
2C/	lo-	2e\	lo-	2c/	lo-	2g\	lo-
!LO:PB:g=original	!	!	!	!	!	!	!
2C/	-cu-	2e\	-cu-	2c/	-cu-	2g\	-cu-
!	!	!LO:SIC:v:t=custos f	!	!	!	!	!
2C/	-tus	2e\	-tus e(st)	2c/	-tus	2g\	-tuS
!	!	!LO:LB:g=original	!	!	!	!	!
=222-	=222-	=222-	=222-	=222-	=222-	=222-	=222-
1F	eſt	1f	per	0c	eſt	1a	eſt
0C	.	0e	pro-	.	.	0g	per
=223-	=223-	=223-	=223-	=223-	=223-	=223-	=223-
.	.	.	.	1c	per	.	.
2.F/	per	1.f	-phe-	1.c	pro-	1.a	pro-
4G\	pro-	.	.	.	.	.	.
=224-	=224-	=224-	=224-	=224-	=224-	=224-	=224-
1A	-phe-	.	.	.	.	.	.
.	.	4e\	-taS	4B-/	.	2f\	-phe-
.	.	4d\	.	4A/	.	.	.
2G\	-taS	2e\	.	2B-/	.	2g\	.
2F\	.	1f\	.	1c\	-phe-	1a\	.
=225-	=225-	=225-	=225-	=225-	=225-	=225-	=225-
1G	.	.	.	.	.	.	.
!	!	!	!	!	!	!LO:SIC:v:t=custos a	!
.	.	2e\	.	2B-/	-tas;	2g\	.
!	!	!	!	!	!	!LO:PB:g=original	!
=226-	=226-	=226-	=226-	=226-	=226-	=226-	=226-
*M3/1	*	*M3/1	*	*M3/1	*	*M3/1	*
0F	.	0.f	.	0c	.	0a	-taS;
1r	.	.	.	1r	.	1r	.
=227-	=227-	=227-	=227-	=227-	=227-	=227-	=227-
1.F	Et	1%3r	.	1c	Et	0f	et
.	.	.	.	1d	u-	.	.
2D/	u-	.	.	.	.	.	.
!	!	!	!	!LO:SIC:v:t=custos A	!	!	!
1E	-na(m)	.	.	1c	-na(m)	1g	u-
!	!	!	!	!LO:LB:g=original	!	!	!
=228-	=228-	=228-	=228-	=228-	=228-	=228-	=228-
*col	*	*	*	*	*	*	*
1F	ſan-	1c	Et	0A	ſan-	1a	-na(m)
0D	-cta(m)	1d	v-	.	.	0f	ſan-
.	.	1B-	-na(m)	1F	-cta(m)	.	.
*Xcol	*	*	*	*	*	*	*
=229-	=229-	=229-	=229-	=229-	=229-	=229-	=229-
0C	ca-	0c	ſa(n)-	1G	.	0e	-cta(m)
.	.	.	.	1.c	ca-	.	.
!LO:SIC:v:t=custos C	!	!	!	!	!	!	!
1F	-tho-	1A	-cta(m)	.	.	1f	ca-
.	.	.	.	2d\	-tho-	.	.
!LO:LB:g=original	!	!	!	!	!	!	!
=230-	=230-	=230-	=230-	=230-	=230-	=230-	=230-
1C	-li-	1c	ca-	1e	-li-	1e	-tho-
1F	-cam	1A	-tho-	1f	-ca(m)	0d	-li-
1G	.	1B-	-li-	1d	et	.	.
=231-	=231-	=231-	=231-	=231-	=231-	=231-	=231-
0C	.	0G	-ca(m)	0e	a-	0c	-ca(m),
!	!	!LO:SIC:v:t=custos c	!	!	!	!	!
1C	et	1c	et	1e	-po-	1g	et
!	!	!LO:PB:g=original	!	!	!	!	!
=232-	=232-	=232-	=232-	=232-	=232-	=232-	=232-
0F	a-	0c	a-	1.f	-ſto-	0a	a-
.	.	.	.	2e\	-li-	.	.
!	!	!LO:TX:t=P:problem:punctum divisionis	!	!	!	!	!
1G	-po-	1B-	-po-	1d	-cam	1g	-po-
=233-	=233-	=233-	=233-	=233-	=233-	=233-	=233-
1A	-ſto-	1c	-ſto-	1c	.	1f	-ſto-
0G	-li-	0B-	-li-	1d	.	1g	-li-
.	.	.	.	1e	.	1g	-cam
=234-	=234-	=234-	=234-	=234-	=234-	=234-	=234-
1.F	-cam	0c	-cam	0f	.	0a	.
2E/	Ec-	.	.	.	.	.	.
1D	-cle-	1d	ec-	1F	ec-	1f	ec-
=235-	=235-	=235-	=235-	=235-	=235-	=235-	=235-
1C	-ſi-	1e	-cle-	0c	-cle-	1g	-cle-
1F	-am	1f	-ſi-	.	.	1a	-ſi-
!	!	!	!	!LO:SIC:v:t=custos c	!	!	!
1F	.	1f	-am,	1c	-ſi-	1a	.
!	!	!	!	!LO:LB:g=original	!	!LO:LB:g=original	!
=236-	=236-	=236-	=236-	=236-	=236-	=236-	=236-
*M2/1	*	*M2/1	*	*M2/1	*	*M2/1	*
*met(C|)	*	*met(C|)	*	*met(C|)	*	*met(C|)	*
1C	.	0e	.	0c	-am.	1g	-am;
2r	.	.	.	.	.	2r	.
2C/	Con-	.	.	.	.	2g\	con-
=237-	=237-	=237-	=237-	=237-	=237-	=237-	=237-
!LO:SIC:v:t=custos G	!	!	!	!	!	!	!
1F	-fi-	2r	.	2r	.	1a	  fi-
.	.	2f\	con-	2c/	Con-	.	.
!LO:LB:g=original	!	!	!	!	!	!	!
1G	-te-	2d/	-fi-	2B-/	-fi-	1g	-te-
.	.	2d/	-te-	2B-/	-te-	.	.
=238-	=238-	=238-	=238-	=238-	=238-	=238-	=238-
2A\	-or	2c/	-or	2A/	-or	2e/	-or
2F/	u-	2f\	v-	2c/	u-	1a	v-
2A\	-nu(m)	2e\	-num	2c/	-nu(m)	.	.
2B-\	bap-	2.d/	bap-	2B-/	bap-	1g\	-nu(m)
=239-	=239-	=239-	=239-	=239-	=239-	=239-	=239-
1c	-tiſ-	.	.	1A	-tiſ-	.	.
.	.	4c/	.	.	.	.	.
!	!	!LO:SIC:v:t=custos B-	!	!	!	!	!
.	.	1c	.	.	.	2f\	bap-
1d	-ma	.	.	1G	-ma;	1g	-tiſ-
!	!	!LO:LB:g=original	!	!	!	!	!
.	.	2B-/	-tiſ-	.	.	.	.
=240-	=240-	=240-	=240-	=240-	=240-	=240-	=240-
1c	.	0c	-ma,	2r	.	1e	-ma
.	.	.	.	2g\	in	.	.
2r	.	.	.	2g\	re	2r	.
2C/	in	.	.	2e\	miſ-	2g\	in
=241-	=241-	=241-	=241-	=241-	=241-	=241-	=241-
1.F	re-	2r	.	0f	-si-	1.a	re-
.	.	2c/	in	.	.	.	.
.	.	2A/	re-	.	.	.	.
2F/	-miſ-	2A/	-miſ-	.	.	2a\	-miſ-
=242-	=242-	=242-	=242-	=242-	=242-	=242-	=242-
2G/	-si-	2B-/	-si-	1d	-o-	2g\	-si-
2G/	-o-	2B-/	-o-	.	.	2g\	-o-
!	!	!	!	!LO:SIC:v:t=custos f	!	!	!
1A	-ne(m)	2A/	-ne(m)	1c	-nem	1e	-ne(m)
.	.	2.c/	pec-	.	.	.	.
!	!	!	!	!LO:PB:g=original	!	!	!
=243-	=243-	=243-	=243-	=243-	=243-	=243-	=243-
!	!	!	!	!LO:TX:t=P:problem:dalszy ciąg na 0200v	!	!	!
1.F	pec-	.	.	2.f\	pec-	1.a	pec-
.	.	4B-/	-ca-	.	.	.	.
.	.	4A/	-to-	.	.	.	.
.	.	4G/	-rum	4e\	-ca-	.	.
.	.	2F/	.	4d/	-to-	.	.
.	.	.	.	4c/	-rum;	.	.
2E/	-ca-	2G/	.	2.c/	.	2g\	-ca-
=244-	=244-	=244-	=244-	=244-	=244-	=244-	=244-
!	!	!	!	!	!	!LO:SIC:v:t=custos e	!
1D	-to-	2A/	.	.	.	1f	-to-
.	.	.	.	8B-/L	.	.	.
.	.	.	.	8A/J	.	.	.
.	.	2F/	.	2B-/	.	.	.
!	!	!	!	!	!	!LO:LB:g=original	!
1C	-rum;	0G	.	0c	.	0e	-rum;-
=245-	=245-	=245-	=245-	=245-	=245-	=245-	=245-
!LO:SIC:v:t=custos F	!	!	!	!	!	!	!
1C	.	.	.	.	.	.	.
!LO:LB:g=original	!	!	!	!	!	!	!
2.F\	et	1r	.	1r	.	1.f	-et
4G\	ex-	.	.	.	.	.	.
=246-	=246-	=246-	=246-	=246-	=246-	=246-	=246-
4A\	.	0r	.	1c	et	.	.
4B-\	-pec-	.	.	.	.	.	.
1c	-to	.	.	.	.	2e/	ex-
.	.	.	.	1d	ex-	1d	-pec-
2B-\	.	.	.	.	.	.	.
=247-	=247-	=247-	=247-	=247-	=247-	=247-	=247-
1c	re-	1r	.	1e	-pec-	1c	-to
1.F	-ſu-	2r	.	2c/	-to	1.a	re-
.	.	1c\	re-	1f\	re-	.	.
=248-	=248-	=248-	=248-	=248-	=248-	=248-	=248-
.	.	.	.	.	.	.	.
2F/	-rec-	2c/	-ſu-	2f\	-ſur-	2a\	-ſur-
!	!	!LO:SIC:v:t=custos c	!	!	!	!	!
2G/	-ti-	2c/	-recti-	2f\	-rec-	2a\	-rec-
!	!	!LO:LB:g=original	!	!	!	!	!
2F/	-o-	2c/	-o-	2f\	-ti-	2a\	-ti-
=249-	=249-	=249-	=249-	=249-	=249-	=249-	=249-
1G	-nem	1B-	-nem	1d	-o-	1g	-o-
1C	mor-	1G	.	1c	-ne(m)	1e	-ne(m)
=250-	=250-	=250-	=250-	=250-	=250-	=250-	=250-
2.F/	-tu-	2.A/	mor-	1a	mor-	1f	mor-
4G/	-o-	4B-/	-tu-	.	.	.	.
2A\	-rum	2c/	-o-	1.a	-tu-	2e/	-tu-
2D/	.	2.d/	-rum	.	.	2.f/	-o-
=251-	=251-	=251-	=251-	=251-	=251-	=251-	=251-
1A	.	.	.	.	.	.	.
.	.	4c/	.	.	.	4e/	-rum;
!	!	!	!	!LO:SIC:v:t=custos g	!	!	!
.	.	1c	.	2f\	.	4d/	.
.	.	.	.	.	.	4c/	.
!	!	!	!	!LO:LB:g=original	!	!	!
1G	.	.	.	1g	-o-	1d	.
.	.	2B-/	.	.	.	.	.
=252-	=252-	=252-	=252-	=252-	=252-	=252-	=252-
1C	.	1.c	.	1e	-rum,	1c	.
!LO:SIC:v:t=custos c	!	!	!	!	!	!	!
1r	.	.	.	1r	.	1g	et
.	.	2B-/	.	.	.	.	.
!LO:PB:g=original	!	!	!	!	!	!	!
=253-	=253-	=253-	=253-	=253-	=253-	=253-	=253-
!	!	!	!	!	!	!LO:SIC:v:t=custos a	!
0c	Et	2A/	.	1e	Et	1a	ui-
.	.	2G/	.	.	.	.	.
!	!	!	!	!	!	!LO:LB:g=original	!
.	.	1F	.	1.f	ui-	1.a	-tam
=254-	=254-	=254-	=254-	=254-	=254-	=254-	=254-
1d	.	0r	.	.	.	.	.
.	.	.	.	2d\	-ta(m)	4g\	ven-
.	.	.	.	.	.	4f\	-tu-
2c\	ui-	.	.	2e\	.	1g	-ri
2.B-\	-tam	.	.	1d\	uen-	.	.
=255-	=255-	=255-	=255-	=255-	=255-	=255-	=255-
.	.	2r	.	.	.	2.f/	.
4A\	.	.	.	.	.	.	.
1A	uen-	1f	Et	2c/	-tu-	.	.
.	.	.	.	.	.	4e/	.
*	*	*	*	*lig	*	*	*
.	.	.	.	1B-	-ri	1d	.
2G/	.	2g\	ui-	.	.	.	.
=256-	=256-	=256-	=256-	=256-	=256-	=256-	=256-
2A/	-tu-	2e\	-ta(m)	1A	.	1c	ſe-
1c	.	2c/	ue(n)-	.	.	.	.
*	*	*	*	*Xlig	*	*	*
.	.	1d	-tu-	1G	.	1g	-cu-
2B-\	-ri	.	.	.	.	.	.
=257-	=257-	=257-	=257-	=257-	=257-	=257-	=257-
!	!	!LO:SIC:v:t=custos A	!	!	!	!	!
2c\	ſe-	2c/	-ri	2r	.	2e/	-li
!	!	!LO:LB:g=original	!	!	!	!	!
2F/	-cu-	2A/	ſe-	1c	ſe-	1f	A-
1G	-li	2B-/	-cu-	.	.	.	.
.	.	2G/	-li	2B-/	-cu-	2e/	.
=258-	=258-	=258-	=258-	=258-	=258-	=258-	=258-
1F	.	2.A/	.	1c	-li,	1f	-men;
.	.	4B-/	.	.	.	.	.
2r	.	1c	.	2.F/	A-	1a	ſe-
1F\	A-	.	.	.	.	.	.
.	.	.	.	4G/	-men,	.	.
=259-	=259-	=259-	=259-	=259-	=259-	=259-	=259-
.	.	1c	A-	4A/	.	2a\	-cu-
.	.	.	.	4B-/	.	.	.
2C/	-me(n)	.	.	1c	.	2.g\	-li
1D	.	1F	-men	.	.	.	.
.	.	.	.	.	.	4f\	.
.	.	.	.	2B-/	.	1f\	A-
=260-	=260-	=260-	=260-	=260-	=260-	=260-	=260-
!	!	!LO:N:vis=1	!	!LO:SIC:v:t=custos c	!	!	!
0C	.	0G	.	0c	.	.	.
.	.	.	.	.	.	4e/	.
.	.	.	.	.	.	4d/	.
.	.	.	.	.	.	1e	.
!	!	!	!	!LO:LB:g=original	!	!	!
=261-	=261-	=261-	=261-	=261-	=261-	=261-	=261-
*	*	*	*	*lig	*	*	*
1.F	A-	1.F	.	1c	A-	[0f;<l	-men
.	.	.	.	1.f	.	.	.
2E/	.	2G/	.	.	.	.	.
*	*	*	*	*Xlig	*	*	*
=262-	=262-	=262-	=262-	=262-	=262-	=262-	=262-
*	*	*lig	*	*	*	*	*
2D/	.	1A	A-	.	.	0f_	.
2C/	.	.	.	2e\	-men;	.	.
0BB-	-men	1.B-	.	1.d	.	.	.
*	*	*Xlig	*	*	*	*	*
=263-	=263-	=263-	=263-	=263-	=263-	=263-	=263-
.	.	.	.	.	.	0f]	.
.	.	4A/	-men	4c/	.	.	.
.	.	4G/	.	4B-/	.	.	.
1F;<l	.	1A;l	.	1c;<l	.	.	.
==	==	==	==	==	==	==	==
*-	*-	*-	*-	*-	*-	*-	*-
!!!system-decoration: [(s1,s2,s3,s4)]
!!!RDF**kern: < = below
!!!RDF**kern: l = terminal long
!!!AIN: 1 alto 1 bass 1 soprn 1 tenor
!!!ENC: Mateusz Solarz
!!!END: 2022-01-13
!!!ENC: Marta Lawrence
!!!END: 2021-01-27
